!!!!SEGMENT: pl-cz--ii-154--001_maader-ludwik--litaniae-lauretanae-kyrie.krn
!!!cenid: 17xx:968
!!!COM: Maader, Ludwik
!!!COM-rismID: pe30020328
!!!CDT: <1794->1798
!!!CNT:
!!!OTL: Litaniae Lauretanae - Kyrie
!!!PDT: 1786
!!!AGN: Sacred; Mass section
!!!SMS-siglum: PL-CZ
!!!SMS-shelfmark: II-154
!!!SMS-shelfwork: 001 W
!!!SMS-variant:
!!!SMS-altvar:
!!!NIFC-rismSourceID: 300000756
!!!NIFC-rismChildID: 300000757
!!!NIFC-islandoraID: pl-cz:32610
!!!URL-pdf-islandora: https://repozytorium.nifc.pl/islandora/object/pl-cz%3A32610/datastream/PDF/view
!!!URL-scan:
!!!ONB-nifc: UWAGA: w okładce fragment innego utworu. Uwaga: Litaniae (Kyrie) i Salve Regina to osobne utwory
!!!OMD:
!!!OMD-mod: Allegro moderato
!!!AIN: 1 alto 1 bass 2 clrno 1 organ 1 soprn 1 tenor 2 violn
!!!key: C
**kern	**fba	**dynam	**kern	**dynam	**kern	**dynam	**kern	**text	**mod-text	**kern	**text	**mod-text	**kern	**text	**mod-text	**kern	**text	**mod-text	**kern	**kern
*	*	*	*group3	*	*group3	*	*group2	*	*	*group2	*	*	*group2	*	*	*group2	*	*	*group1	*group1
*part9	*part9	*part9	*part8	*part8	*part7	*part7	*part6	*part6	*part6	*part5	*part5	*part5	*part4	*part4	*part4	*part3	*part3	*part3	*part2	*part1
*staff9	*	*	*staff8	*	*staff7	*	*staff6	*staff6	*staff6	*staff5	*staff5	*staff5	*staff4	*staff4	*staff4	*staff3	*staff3	*staff3	*staff2	*staff1
*I"Organo	*	*	*I"Violino Secondo	*	*I"Violino Primo obl:	*	*I"Baſso	*	*	*I"Tenore	*	*	*I"Alto	*	*	*I"Canto	*	*	*I"Clarino Secundo	*I"Clarino Primo
*mI"Organo	*	*	*mI"Violino II	*	*mI"Violino I	*	*mI"Basso	*	*	*	*	*	*mI"Alto	*	*	*mI"Soprano	*	*	*mI"Clarino II	*mI"Clarino I
*I'org	*	*	*I'vl 2	*	*I'vl 1	*	*I'B	*	*	*I'T	*	*	*I'A	*	*	*I'S	*	*	*I'clno 2	*I'clno 1
*Iorgan	*	*	*Ivioln	*	*Ivioln	*	*Ibass	*	*	*Itenor	*	*	*Ialto	*	*	*Isoprn	*	*	*Iclrno	*Iclrno
*ICklav	*	*	*ICstr	*	*ICstr	*	*ICvox	*	*	*ICvox	*	*	*ICvox	*	*	*ICvox	*	*	*ICbras	*ICbras
*IGcont	*	*	*	*	*	*	*IGcoro	*	*	*IGcoro	*	*	*IGcoro	*	*	*IGcoro	*	*	*	*
*	*	*	*	*	*	*	*	*	*	*	*	*	*	*	*	*	*	*	*tacet	*tacet
*clefF4	*	*	*clefG2	*	*clefG2	*	*clefF4	*	*	*clefC4	*	*	*clefC3	*	*	*clefC1	*	*	*	*
*	*	*	*	*	*	*	*mclefF4	*	*	*mclefGv2	*	*	*mclefG2	*	*	*mclefG2	*	*	*	*
*k[]	*	*	*k[]	*	*k[]	*	*k[]	*	*	*k[]	*	*	*k[]	*	*	*k[]	*	*	*	*
*C:	*	*	*C:	*	*C:	*	*C:	*	*	*C:	*	*	*C:	*	*	*C:	*	*	*	*
*M4/4	*	*	*M4/4	*	*M4/4	*	*M4/4	*	*	*M4/4	*	*	*M4/4	*	*	*M4/4	*	*	*	*
*met(c)	*	*	*met(c)	*	*met(c)	*	*met(c)	*	*	*met(c)	*	*	*met(c)	*	*	*met(c)	*	*	*	*
*	*	*	*	*	*	*	*	*	*	*	*	*	*	*	*	*all\right	*	*	*	*
=1	=1	=1	=1	=1	=1	=1	=1	=1	=1	=1	=1	=1	=1	=1	=1	=1	=1	=1	=1	=1
!	!	!	!LO:TX:a:i:t=allo moderato:mod=	!	!	!	!	!	!	!	!	!	!	!	!	!	!	!	!	!
!LO:TX:a:i:t=Allo moderato:mod=	!	!	!LO:TX:a:i:t=12.:mod=	!	!LO:TX:b:i:t=Lỹtaniae:mod=	!	!LO:TX:a:i:t=Lỹtaniae Conven<..>:note=abrewiacja nieczytelna, Conventu?:mod=	!	!	!LO:TX:a:i:t=allo mod&colon;:mod=	!	!	!LO:TX:a:i:t=Lytaniae:mod=	!	!	!LO:TX:a:i:t=allo mod.:mod=	!	!	!	!
!LO:TX:a:i:t=Lÿtaniae Convety.:note=Conventu?:mod=	!	!LO:DY:t=pia :mod= 	!LO:TX:a:i:t=Lytaniae:mod=	!	!LO:TX:a:i:t=Solo	!	!LO:TX:a:i:t=allo mod&colon;:mod=	!	!	!LO:TX:b:i:t=Lỹtaniae:mod=	!	!	!LO:TX:a:i:t=allo mod&colon;:mod=	!	!	!LO:TX:b:i:t=Lÿtaniae:mod=	!	!	!LO:TX:t=P:problem=zgodnie z RISM "partie clno 1, 2 zaginęły"	!LO:TX:t=P:problem=zgodnie z RISM "partie clno 1, 2 zaginęły"
8r	.	p	1r	.	4cc\	.	1r	.	.	1r	.	.	1r	.	.	1r	.	.	1ryy	1ryy
!LO:TX:a:i:t=Solo	!	!LO:DY:t= :mod=%s	!	!	!	!	!	!	!	!	!	!	!	!	!	!	!	!	!	!
8C\L	.	p	.	.	.	.	.	.	.	.	.	.	.	.	.	.	.	.	.	.
8C\	.	.	.	.	16ff\LL	.	.	.	.	.	.	.	.	.	.	.	.	.	.	.
.	.	.	.	.	16ee\	.	.	.	.	.	.	.	.	.	.	.	.	.	.	.
8E\J	.	.	.	.	16dd\	.	.	.	.	.	.	.	.	.	.	.	.	.	.	.
.	.	.	.	.	16cc\JJ	.	.	.	.	.	.	.	.	.	.	.	.	.	.	.
8r	.	.	.	.	16aa\LL	.	.	.	.	.	.	.	.	.	.	.	.	.	.	.
.	.	.	.	.	16gg\JJ	.	.	.	.	.	.	.	.	.	.	.	.	.	.	.
8G\L	.	.	.	.	8.gg\L	.	.	.	.	.	.	.	.	.	.	.	.	.	.	.
8A\	.	.	.	.	.	.	.	.	.	.	.	.	.	.	.	.	.	.	.	.
.	.	.	.	.	16ff\L	.	.	.	.	.	.	.	.	.	.	.	.	.	.	.
8B\J	.	.	.	.	16ee\	.	.	.	.	.	.	.	.	.	.	.	.	.	.	.
.	.	.	.	.	16dd\JJ	.	.	.	.	.	.	.	.	.	.	.	.	.	.	.
=2	=2	=2	=2	=2	=2	=2	=2	=2	=2	=2	=2	=2	=2	=2	=2	=2	=2	=2	=2	=2
.	.	.	.	.	8qqee/	.	.	.	.	.	.	.	.	.	.	.	.	.	.	.
!LO:TX:t=P:problem=mixed beam:mod=	!	!	!	!	!	!	!	!	!	!	!	!	!	!	!	!	!	!	!	!
8c\L	.	.	1r	.	16dd\LL	.	1r	.	.	1r	.	.	1r	.	.	1r	.	.	1ryy	1ryy
.	.	.	.	.	16cc\JJ	.	.	.	.	.	.	.	.	.	.	.	.	.	.	.
8C/J	.	.	.	.	8.cc\L	.	.	.	.	.	.	.	.	.	.	.	.	.	.	.
8r	.	.	.	.	.	.	.	.	.	.	.	.	.	.	.	.	.	.	.	.
.	.	.	.	.	16eee\L	.	.	.	.	.	.	.	.	.	.	.	.	.	.	.
8F\	4 2	.	.	.	16ddd\	.	.	.	.	.	.	.	.	.	.	.	.	.	.	.
.	.	.	.	.	16bb\JJ	.	.	.	.	.	.	.	.	.	.	.	.	.	.	.
8E\L	6	.	.	.	16ccc\LL	.	.	.	.	.	.	.	.	.	.	.	.	.	.	.
.	.	.	.	.	16eee\	.	.	.	.	.	.	.	.	.	.	.	.	.	.	.
8C\	.	.	.	.	16ee\	.	.	.	.	.	.	.	.	.	.	.	.	.	.	.
.	.	.	.	.	16gg\JJ	.	.	.	.	.	.	.	.	.	.	.	.	.	.	.
.	.	.	.	.	8qqgg/	.	.	.	.	.	.	.	.	.	.	.	.	.	.	.
8D\	7	.	.	.	4ff\	.	.	.	.	.	.	.	.	.	.	.	.	.	.	.
8GG\J	7	.	.	.	.	.	.	.	.	.	.	.	.	.	.	.	.	.	.	.
!	!	!	!	!	!LO:LB:g=original	!	!	!	!	!	!	!	!	!	!	!	!	!	!	!
=3	=3	=3	=3	=3	=3	=3	=3	=3	=3	=3	=3	=3	=3	=3	=3	=3	=3	=3	=3	=3
4C/	.	.	1r	.	[4ee\	.	1r	.	.	1r	.	.	1r	.	.	1r	.	.	1ryy	1ryy
!LO:TX:t=P:problem=mixed beam:mod=	!	!	!	!	!	!	!	!	!	!	!	!	!	!	!	!	!	!	!	!
8C/L	.	.	.	.	16ee\LL]	.	.	.	.	.	.	.	.	.	.	.	.	.	.	.
.	.	.	.	.	16ee\	.	.	.	.	.	.	.	.	.	.	.	.	.	.	.
8F\J	4 2	.	.	.	16dd\	.	.	.	.	.	.	.	.	.	.	.	.	.	.	.
.	.	.	.	.	16b\JJ	.	.	.	.	.	.	.	.	.	.	.	.	.	.	.
!	!	!	!	!	!LO:TX:t=P:problem=mixed beam:mod=:mod=	!	!	!	!	!	!	!	!	!	!	!	!	!	!	!
8E\L	.	.	.	.	16cc\LL	.	.	.	.	.	.	.	.	.	.	.	.	.	.	.
.	.	.	.	.	16ee\	.	.	.	.	.	.	.	.	.	.	.	.	.	.	.
8c\J	.	.	.	.	16e/	.	.	.	.	.	.	.	.	.	.	.	.	.	.	.
.	.	.	.	.	16g/JJ	.	.	.	.	.	.	.	.	.	.	.	.	.	.	.
.	.	.	.	.	8qqg/	.	.	.	.	.	.	.	.	.	.	.	.	.	.	.
8c\L	.	.	.	.	4f/	.	.	.	.	.	.	.	.	.	.	.	.	.	.	.
8G\J	.	.	.	.	.	.	.	.	.	.	.	.	.	.	.	.	.	.	.	.
=4	=4	=4	=4	=4	=4	=4	=4	=4	=4	=4	=4	=4	=4	=4	=4	=4	=4	=4	=4	=4
.	.	.	.	.	8qqf/	.	.	.	.	.	.	.	.	.	.	.	.	.	.	.
4c\	.	.	1r	.	4e/	.	1r	.	.	1r	.	.	1r	.	.	1r	.	.	1ryy	1ryy
8r	.	.	.	.	8gM/L	.	.	.	.	.	.	.	.	.	.	.	.	.	.	.
8F\	4 2	.	.	.	16a/L	.	.	.	.	.	.	.	.	.	.	.	.	.	.	.
.	.	.	.	.	16b/JJ	.	.	.	.	.	.	.	.	.	.	.	.	.	.	.
8E\L	6	.	.	.	8ccM\L	.	.	.	.	.	.	.	.	.	.	.	.	.	.	.
8C\	.	.	.	.	16dd\L	.	.	.	.	.	.	.	.	.	.	.	.	.	.	.
.	.	.	.	.	16ee\JJ	.	.	.	.	.	.	.	.	.	.	.	.	.	.	.
8BB\	.	.	.	.	8ff\L	.	.	.	.	.	.	.	.	.	.	.	.	.	.	.
8C\J	.	.	.	.	8ee\J	.	.	.	.	.	.	.	.	.	.	.	.	.	.	.
=5	=5	=5	=5	=5	=5	=5	=5	=5	=5	=5	=5	=5	=5	=5	=5	=5	=5	=5	=5	=5
.	.	.	.	.	8qqee/	.	.	.	.	.	.	.	.	.	.	.	.	.	.	.
4G\	.	.	1r	.	4dd\	.	1r	.	.	1r	.	.	1r	.	.	1r	.	.	1ryy	1ryy
8r	.	.	.	.	8ggM\L	.	.	.	.	.	.	.	.	.	.	.	.	.	.	.
8F\	4 2	.	.	.	16aa\L	.	.	.	.	.	.	.	.	.	.	.	.	.	.	.
.	.	.	.	.	16bb\JJ	.	.	.	.	.	.	.	.	.	.	.	.	.	.	.
8E\L	6	.	.	.	8cccM\L	.	.	.	.	.	.	.	.	.	.	.	.	.	.	.
8c\	.	.	.	.	16ddd\L	.	.	.	.	.	.	.	.	.	.	.	.	.	.	.
.	.	.	.	.	16eee\JJ	.	.	.	.	.	.	.	.	.	.	.	.	.	.	.
8B\	.	.	.	.	8fff\L	.	.	.	.	.	.	.	.	.	.	.	.	.	.	.
8c\J	.	.	.	.	8eee\J	.	.	.	.	.	.	.	.	.	.	.	.	.	.	.
!LO:LB:g=original	!	!	!	!	!	!	!	!	!	!	!	!	!	!	!	!	!	!	!	!
=6	=6	=6	=6	=6	=6	=6	=6	=6	=6	=6	=6	=6	=6	=6	=6	=6	=6	=6	=6	=6
.	.	.	.	.	8qqeee/	.	.	.	.	.	.	.	.	.	.	.	.	.	.	.
4G\	.	.	1r	.	4ddd\	.	1r	.	.	1r	.	.	1r	.	.	1r	.	.	1ryy	1ryy
8r	.	.	.	.	16ggg\LL	.	.	.	.	.	.	.	.	.	.	.	.	.	.	.
.	.	.	.	.	16eee\	.	.	.	.	.	.	.	.	.	.	.	.	.	.	.
8E\	.	.	.	.	16ccc\	.	.	.	.	.	.	.	.	.	.	.	.	.	.	.
.	.	.	.	.	16gg\JJ	.	.	.	.	.	.	.	.	.	.	.	.	.	.	.
!	!	!	!	!	!LO:LB:g=original	!	!	!	!	!	!	!	!	!	!	!	!	!	!	!
8F\L	.	.	.	.	8aaW\L	.	.	.	.	.	.	.	.	.	.	.	.	.	.	.
8D\J	.	.	.	.	8gg\J	.	.	.	.	.	.	.	.	.	.	.	.	.	.	.
8r	.	.	.	.	16fff\LL	.	.	.	.	.	.	.	.	.	.	.	.	.	.	.
.	.	.	.	.	16ddd\	.	.	.	.	.	.	.	.	.	.	.	.	.	.	.
8D\	.	.	.	.	16bb\	.	.	.	.	.	.	.	.	.	.	.	.	.	.	.
.	.	.	.	.	16ff\JJ	.	.	.	.	.	.	.	.	.	.	.	.	.	.	.
=7	=7	=7	=7	=7	=7	=7	=7	=7	=7	=7	=7	=7	=7	=7	=7	=7	=7	=7	=7	=7
8E\L	.	.	1r	.	8ggW\L	.	1r	.	.	1r	.	.	1r	.	.	1r	.	.	1ryy	1ryy
8C\J	.	.	.	.	8ee\J	.	.	.	.	.	.	.	.	.	.	.	.	.	.	.
8r	.	.	.	.	16eee\LL	.	.	.	.	.	.	.	.	.	.	.	.	.	.	.
.	.	.	.	.	16ccc\	.	.	.	.	.	.	.	.	.	.	.	.	.	.	.
8C\L	.	.	.	.	16aa\	.	.	.	.	.	.	.	.	.	.	.	.	.	.	.
.	.	.	.	.	16ee\JJ	.	.	.	.	.	.	.	.	.	.	.	.	.	.	.
8D\	.	.	.	.	8ffw\L	.	.	.	.	.	.	.	.	.	.	.	.	.	.	.
8GG\J	.	.	.	.	8dd\J	.	.	.	.	.	.	.	.	.	.	.	.	.	.	.
8r	.	.	.	.	16ddd\LL	.	.	.	.	.	.	.	.	.	.	.	.	.	.	.
.	.	.	.	.	16bb\	.	.	.	.	.	.	.	.	.	.	.	.	.	.	.
8BB/	.	.	.	.	16gg\	.	.	.	.	.	.	.	.	.	.	.	.	.	.	.
.	.	.	.	.	16dd\JJ	.	.	.	.	.	.	.	.	.	.	.	.	.	.	.
=8	=8	=8	=8	=8	=8	=8	=8	=8	=8	=8	=8	=8	=8	=8	=8	=8	=8	=8	=8	=8
8C\L	.	.	1r	.	8ee\L	.	1r	.	.	1r	.	.	1r	.	.	1r	.	.	1ryy	1ryy
16E\L	.	.	.	.	8cc\J	.	.	.	.	.	.	.	.	.	.	.	.	.	.	.
16G\JJ	.	.	.	.	.	.	.	.	.	.	.	.	.	.	.	.	.	.	.	.
!	!	!	!	!	!LO:TUP:a:problem=klamra łukowa, kropka zamiast numeru	!	!	!	!	!	!	!	!	!	!	!	!	!	!	!
8c\L	.	.	.	.	24ee\LL	.	.	.	.	.	.	.	.	.	.	.	.	.	.	.
.	.	.	.	.	24dd\	.	.	.	.	.	.	.	.	.	.	.	.	.	.	.
.	.	.	.	.	24cc\JJ	.	.	.	.	.	.	.	.	.	.	.	.	.	.	.
8c\	.	.	.	.	16ccc|>\LL	.	.	.	.	.	.	.	.	.	.	.	.	.	.	.
.	.	.	.	.	16cc|>\JJ	.	.	.	.	.	.	.	.	.	.	.	.	.	.	.
!	!	!	!	!	!LO:TUP:a:problem=klamra łukowa, kropka zamiast numeru	!	!	!	!	!	!	!	!	!	!	!	!	!	!	!
8A\	.	.	.	.	24ee\LL	.	.	.	.	.	.	.	.	.	.	.	.	.	.	.
.	.	.	.	.	24dd\	.	.	.	.	.	.	.	.	.	.	.	.	.	.	.
.	.	.	.	.	24cc\JJ	.	.	.	.	.	.	.	.	.	.	.	.	.	.	.
8A\J	.	.	.	.	16ccc|>\LL	.	.	.	.	.	.	.	.	.	.	.	.	.	.	.
.	.	.	.	.	16cc|>\JJ	.	.	.	.	.	.	.	.	.	.	.	.	.	.	.
!	!	!	!	!	!LO:TUP:a:problem=klamra łukowa, kropka zamiast numeru	!	!	!	!	!	!	!	!	!	!	!	!	!	!	!
8E\L	.	.	.	.	24ee\LL	.	.	.	.	.	.	.	.	.	.	.	.	.	.	.
.	.	.	.	.	24dd\	.	.	.	.	.	.	.	.	.	.	.	.	.	.	.
.	.	.	.	.	24cc\JJ	.	.	.	.	.	.	.	.	.	.	.	.	.	.	.
8E\J	.	.	.	.	16ccc|>\LL	.	.	.	.	.	.	.	.	.	.	.	.	.	.	.
.	.	.	.	.	16cc|>\JJ	.	.	.	.	.	.	.	.	.	.	.	.	.	.	.
!	!	!	!	!	!LO:LB:g=original	!	!	!	!	!	!	!	!	!	!	!	!	!	!	!
=9	=9	=9	=9	=9	=9	=9	=9	=9	=9	=9	=9	=9	=9	=9	=9	=9	=9	=9	=9	=9
!	!	!	!	!	!LO:TX:t=P:problem=mixed beam:mod=	!	!	!	!	!	!	!	!	!	!	!	!	!	!	!
4F\	.	.	1r	.	16aa|>\LL	.	1r	.	.	1r	.	.	1r	.	.	1r	.	.	1ryy	1ryy
.	.	.	.	.	16f|>/JJ	.	.	.	.	.	.	.	.	.	.	.	.	.	.	.
!	!	!	!	!	!LO:TUP:a:problem=klamra łukowa, kropka zamiast numeru	!	!	!	!	!	!	!	!	!	!	!	!	!	!	!
.	.	.	.	.	24aa\LL	.	.	.	.	.	.	.	.	.	.	.	.	.	.	.
.	.	.	.	.	24ccc\	.	.	.	.	.	.	.	.	.	.	.	.	.	.	.
.	.	.	.	.	24aa\JJ	.	.	.	.	.	.	.	.	.	.	.	.	.	.	.
!	!	!	!	!	!LO:TX:t=P:problem=mixed beam:mod=	!	!	!	!	!	!	!	!	!	!	!	!	!	!	!
4G\	.	.	.	.	16bb|>\LL	.	.	.	.	.	.	.	.	.	.	.	.	.	.	.
.	.	.	.	.	16g|>/JJ	.	.	.	.	.	.	.	.	.	.	.	.	.	.	.
!	!	!	!	!	!LO:TUP:a:problem=klamra łukowa, kropka zamiast numeru	!	!	!	!	!	!	!	!	!	!	!	!	!	!	!
.	.	.	.	.	24bb\LL	.	.	.	.	.	.	.	.	.	.	.	.	.	.	.
.	.	.	.	.	24ddd\	.	.	.	.	.	.	.	.	.	.	.	.	.	.	.
.	.	.	.	.	24bb\JJ	.	.	.	.	.	.	.	.	.	.	.	.	.	.	.
!	!	!	!	!	!LO:TX:t=P:problem=mixed beam:mod=	!	!	!	!	!	!	!	!	!	!	!	!	!	!	!
4A\	.	.	.	.	16ccc|>\LL	.	.	.	.	.	.	.	.	.	.	.	.	.	.	.
.	.	.	.	.	16a|>/JJ	.	.	.	.	.	.	.	.	.	.	.	.	.	.	.
!	!	!	!	!	!LO:TUP:a:problem=klamra łukowa, kropka zamiast numeru	!	!	!	!	!	!	!	!	!	!	!	!	!	!	!
.	.	.	.	.	24ccc\LL	.	.	.	.	.	.	.	.	.	.	.	.	.	.	.
.	.	.	.	.	24eee\	.	.	.	.	.	.	.	.	.	.	.	.	.	.	.
.	.	.	.	.	24ccc\JJ	.	.	.	.	.	.	.	.	.	.	.	.	.	.	.
!	!	!	!	!	!LO:TX:t=P:problem=mixed beam:mod=	!	!	!	!	!	!	!	!	!	!	!	!	!	!	!
4B\	.	.	.	.	16ddd|>\LL	.	.	.	.	.	.	.	.	.	.	.	.	.	.	.
.	.	.	.	.	16b|>/JJ	.	.	.	.	.	.	.	.	.	.	.	.	.	.	.
!	!	!	!	!	!LO:TUP:a:problem=klamra łukowa, kropka zamiast numeru	!	!	!	!	!	!	!	!	!	!	!	!	!	!	!
.	.	.	.	.	24ddd\LL	.	.	.	.	.	.	.	.	.	.	.	.	.	.	.
.	.	.	.	.	24fff\	.	.	.	.	.	.	.	.	.	.	.	.	.	.	.
.	.	.	.	.	24ddd\JJ	.	.	.	.	.	.	.	.	.	.	.	.	.	.	.
=10	=10	=10	=10	=10	=10	=10	=10	=10	=10	=10	=10	=10	=10	=10	=10	=10	=10	=10	=10	=10
4c\	.	.	1r	.	16eee\LL	.	1r	.	.	1r	.	.	1r	.	.	1r	.	.	1ryy	1ryy
.	.	.	.	.	16fff\	.	.	.	.	.	.	.	.	.	.	.	.	.	.	.
.	.	.	.	.	16ggg\	.	.	.	.	.	.	.	.	.	.	.	.	.	.	.
.	.	.	.	.	16fff\JJ	.	.	.	.	.	.	.	.	.	.	.	.	.	.	.
4r	.	.	.	.	16eee\LL	.	.	.	.	.	.	.	.	.	.	.	.	.	.	.
.	.	.	.	.	16ddd\	.	.	.	.	.	.	.	.	.	.	.	.	.	.	.
.	.	.	.	.	16ccc\	.	.	.	.	.	.	.	.	.	.	.	.	.	.	.
.	.	.	.	.	16bb\JJ	.	.	.	.	.	.	.	.	.	.	.	.	.	.	.
4E\	.	.	.	.	16ccc\LL	.	.	.	.	.	.	.	.	.	.	.	.	.	.	.
.	.	.	.	.	16ddd\	.	.	.	.	.	.	.	.	.	.	.	.	.	.	.
.	.	.	.	.	16eee\	.	.	.	.	.	.	.	.	.	.	.	.	.	.	.
.	.	.	.	.	16ddd\JJ	.	.	.	.	.	.	.	.	.	.	.	.	.	.	.
4r	.	.	.	.	16ccc\LL	.	.	.	.	.	.	.	.	.	.	.	.	.	.	.
.	.	.	.	.	16bb\	.	.	.	.	.	.	.	.	.	.	.	.	.	.	.
.	.	.	.	.	16aa\	.	.	.	.	.	.	.	.	.	.	.	.	.	.	.
.	.	.	.	.	16gg\JJ	.	.	.	.	.	.	.	.	.	.	.	.	.	.	.
!	!	!	!	!	!LO:LB:g=original	!	!	!	!	!	!	!	!	!	!	!	!	!	!	!
=11	=11	=11	=11	=11	=11	=11	=11	=11	=11	=11	=11	=11	=11	=11	=11	=11	=11	=11	=11	=11
4F\	.	.	1r	.	8aa|\L	.	1r	.	.	1r	.	.	1r	.	.	1r	.	.	1ryy	1ryy
.	.	.	.	.	16bb|\L	.	.	.	.	.	.	.	.	.	.	.	.	.	.	.
.	.	.	.	.	16ccc|\JJ	.	.	.	.	.	.	.	.	.	.	.	.	.	.	.
4r	.	.	.	.	16ddd|\LL	.	.	.	.	.	.	.	.	.	.	.	.	.	.	.
.	.	.	.	.	16eee|\	.	.	.	.	.	.	.	.	.	.	.	.	.	.	.
.	.	.	.	.	16fff|\	.	.	.	.	.	.	.	.	.	.	.	.	.	.	.
.	.	.	.	.	16ggg|\JJ	.	.	.	.	.	.	.	.	.	.	.	.	.	.	.
!	!	!	!	!	!LO:TX:t=P:problem=mixed beam:mod=	!	!	!	!	!	!	!	!	!	!	!	!	!	!	!
2r	.	.	.	.	8aaa|\L	.	.	.	.	.	.	.	.	.	.	.	.	.	.	.
.	.	.	.	.	8bbb|\	.	.	.	.	.	.	.	.	.	.	.	.	.	.	.
.	.	.	.	.	8cccc|\	.	.	.	.	.	.	.	.	.	.	.	.	.	.	.
.	.	.	.	.	8f#X|/J	.	.	.	.	.	.	.	.	.	.	.	.	.	.	.
=12	=12	=12	=12	=12	=12	=12	=12	=12	=12	=12	=12	=12	=12	=12	=12	=12	=12	=12	=12	=12
!	!	!	!	!	!LO:TX:t=P:problem=mixed beam:mod=	!	!	!	!	!	!	!	!	!	!	!	!	!	!	!
2r	.	.	1r	.	8g|>/L	.	1r	.	.	1r	.	.	1r	.	.	1r	.	.	1ryy	1ryy
.	.	.	.	.	8gg|>\J	.	.	.	.	.	.	.	.	.	.	.	.	.	.	.
.	.	.	.	.	16ff|>\LL	.	.	.	.	.	.	.	.	.	.	.	.	.	.	.
.	.	.	.	.	16ee|>\	.	.	.	.	.	.	.	.	.	.	.	.	.	.	.
.	.	.	.	.	16dd|>\	.	.	.	.	.	.	.	.	.	.	.	.	.	.	.
.	.	.	.	.	16cc|>\JJ	.	.	.	.	.	.	.	.	.	.	.	.	.	.	.
!	!	!	!	!	!LO:MO:mod=*null:null	!	!	!	!	!	!	!	!	!	!	!	!	!	!	!
*	*	*	*	*	*2\right	*	*	*	*	*	*	*	*	*	*	*	*	*	*	*
!	!	!	!	!	!LO:SIC:v:s=2ddT\	!	!	!	!	!	!	!	!	!	!	!	!	!	!	!
!LO:TX:t=P:problem=mixed beam:mod=	!	!	!	!	!LO:TX:a:t=t:mod=	!	!	!	!	!	!	!	!	!	!	!	!	!	!	!
8G\L	.	.	.	.	2dd\	.	.	.	.	.	.	.	.	.	.	.	.	.	.	.
8G\	.	.	.	.	.	.	.	.	.	.	.	.	.	.	.	.	.	.	.	.
8GG/	.	.	.	.	.	.	.	.	.	.	.	.	.	.	.	.	.	.	.	.
8GG/J	.	.	.	.	.	.	.	.	.	.	.	.	.	.	.	.	.	.	.	.
!LO:LB:g=original	!	!	!	!	!	!	!	!	!	!	!	!	!	!	!	!	!	!	!	!
=13	=13	=13	=13	=13	=13	=13	=13	=13	=13	=13	=13	=13	=13	=13	=13	=13	=13	=13	=13	=13
!	!	!	!LO:TX:a:i:t=Tutti:mod=	!LO:DY:t=for. :mod= 	!	!	!	!	!	!	!	!	!	!	!	!LO:TX:t=½:mod=	!	!	!	!
8C/L	.	.	2r	f	8cc\L	.	2r	.	.	2r	.	.	2r	.	.	2r	.	.	1ryy	1ryy
8GG/J	.	.	.	.	8g\J	.	.	.	.	.	.	.	.	.	.	.	.	.	.	.
!	!	!	!	!	!LO:TX:a:i:t=Tutti:mod=	!	!	!	!	!	!	!	!	!	!	!	!	!	!	!
4C/	.	.	.	.	4c/	.	.	.	.	.	.	.	.	.	.	.	.	.	.	.
*tremolo	*	*	*	*	*	*	*	*	*	*	*	*	*	*	*	*	*	*	*	*
!!LO:TX:a:t= :mod=Tutti
!	!	!LO:DY:t= :mod=%s	!	!	!	!LO:DY:t= :mod=%s	!	!	!	!	!	!	!	!	!	!	!	!	!	!
!	!	!LO:MO:mod=!LO&colon;DY&colon;ed=brack	!	!	!	!LO:MO:mod=!LO&colon;DY&colon;ed=brack	!	!	!	!	!	!	!	!	!	!	!	!	!	!
!LO:TX:a:i:t=Tutti:mod=	!	!null	!	!LO:DY:t= :mod=%s	!	!null	!	!	!	!	!	!	!	!	!	!	!	!	!	!
8C/L	.	f	16cc\LL	f	16ee\LL	f	8C/	Ky-	Ky-	8G/	Kÿ-	Ky-	8e\	Ky-	Ky-	8cc\	Ky-	Ky-	.	.
.	.	.	16cc\	.	16ee\	.	.	.	.	.	.	.	.	.	.	.	.	.	.	.
8C/	.	.	16cc\	.	16ee\	.	8C/	-ri-	-ri-	8G/	-ri-	-ri-	8e\	-ri-	-ri-	8cc\	-ri-	-ri-	.	.
.	.	.	16ee\JJ	.	16ccc\JJ	.	.	.	.	.	.	.	.	.	.	.	.	.	.	.
8C/	.	.	16cc\LL	.	16ee\LL	.	8C/	-e	-e	8G/	-e	-e	8e\	-e	-e	8cc\	-ae	-e	.	.
.	.	.	16cc\	.	16ee\	.	.	.	.	.	.	.	.	.	.	.	.	.	.	.
8C/J	.	.	16cc\	.	16ee\	.	8C/	e-	e-	8G/	e-	e-	8e\	e-	e-	8cc\	e-	e-	.	.
.	.	.	16ee\JJ	.	16ccc\JJ	.	.	.	.	.	.	.	.	.	.	.	.	.	.	.
!	!	!	!	!	!LO:LB:g=original	!	!	!	!	!	!	!	!	!	!	!	!	!	!	!
=14	=14	=14	=14	=14	=14	=14	=14	=14	=14	=14	=14	=14	=14	=14	=14	=14	=14	=14	=14	=14
8BB/L	6 5	.	16dd\LL	.	16ff\LL	.	8BB/	-lei-	-lei-	4G/	-lei-	-lei-	4f\	-lei-	-lei-	4dd\	-lei-	-lei-	1ryy	1ryy
.	.	.	16dd\	.	16ff\	.	.	.	.	.	.	.	.	.	.	.	.	.	.	.
8BB/	.	.	16dd\	.	16ff\	.	8BB/	-son	-son	.	.	.	.	.	.	.	.	.	.	.
.	.	.	16ff\JJ	.	16ddd\JJ	.	.	.	.	.	.	.	.	.	.	.	.	.	.	.
8BB/	.	.	16dd\LL	.	16ff\LL	.	8BB/	Chri-	Chri-	4G/	-son	-son	4f\	-son	-son	4dd\	-son	-son	.	.
.	.	.	16dd\	.	16ff\	.	.	.	.	.	.	.	.	.	.	.	.	.	.	.
8BB/J	.	.	16dd\	.	16ff\	.	16BB/	-ste	-ste	.	.	.	.	.	.	.	.	.	.	.
.	.	.	16ff\JJ	.	16ddd\JJ	.	16BB/	e-	e-	.	.	.	.	.	.	.	.	.	.	.
8C/L	.	.	16cc\LL	.	16ee\LL	.	4C/	-lei-	-lei-	8G/	Chri-	Chri-	4e\	Chri-	Chri-	8cc\	Chri-	Chri-	.	.
.	.	.	16cc\	.	16ee\	.	.	.	.	.	.	.	.	.	.	.	.	.	.	.
8C/	.	.	16cc\	.	16ee\	.	.	.	.	16G/	-ste	-ste	.	.	.	16cc\	-ste	-ste	.	.
.	.	.	16ee\JJ	.	16ccc\JJ	.	.	.	.	16G/	e-	e-	.	.	.	16cc\	e-	e-	.	.
!	!	!	!	!	!	!	!	!	!	!	!	!	!	!	!	!LO:LB:g=original	!	!	!	!
8C/	.	.	16cc\LL	.	16ee\LL	.	4C/	-son	-son	8G/	-lei-	-lei-	8e\	-ste	-ste	8cc\	-lei-	-lei-	.	.
.	.	.	16cc\	.	16ee\	.	.	.	.	.	.	.	.	.	.	.	.	.	.	.
8C/J	.	.	16cc\	.	16ee\	.	.	.	.	8G/	-son	-son	8e\	e-	e-	8cc\	-son	-son	.	.
.	.	.	16ee\JJ	.	16ccc\JJ	.	.	.	.	.	.	.	.	.	.	.	.	.	.	.
!	!	!	!LO:LB:g=original	!	!	!	!	!	!	!	!	!	!	!	!	!	!	!	!	!
=15	=15	=15	=15	=15	=15	=15	=15	=15	=15	=15	=15	=15	=15	=15	=15	=15	=15	=15	=15	=15
!LO:MO:mod=*null:null	!	!	!	!	!	!	!	!	!	!	!	!	!	!	!	!	!	!	!	!
*2\right	*	*	*	*	*	*	*	*	*	*	*	*	*	*	*	*	*	*	*	*
8G\L	.	.	16b\LL	.	16dd\LL	.	8G\	fi-	fi-	8.G/	Kÿ-	Ky-	4d\	-lei-	-lei-	8b\	Chri-	Chri-	1ryy	1ryy
.	.	.	16b\	.	16dd\	.	.	.	.	.	.	.	.	.	.	.	.	.	.	.
8G\	.	.	16b\	.	16dd\	.	16G\	-li	-li	.	.	.	.	.	.	8b\	-ste	-ste	.	.
.	.	.	16dd\JJ	.	16bb\JJ	.	16G\	Re-	Re-	16G/	-ri-	-ri-	.	.	.	.	.	.	.	.
8G\	.	.	16b\LL	.	16dd\LL	.	8G\	-dem-	-dem-	8G/	-e	-e	4d\	-son	-son	16b\	au-	au-	.	.
.	.	.	16b\	.	16dd\	.	.	.	.	.	.	.	.	.	.	16b\	-di	-di	.	.
8G\J	.	.	16b\	.	16dd\	.	8G\	-ptor	-ptor	8G/	e-	e-	.	.	.	8b\	nos	nos	.	.
.	.	.	16dd\JJ	.	16bb\JJ	.	.	.	.	.	.	.	.	.	.	.	.	.	.	.
*Xtremolo	*	*	*	*	*	*	*	*	*	*	*	*	*	*	*	*	*	*	*	*
!	!	!	!	!	!	!	!LO:LB:g=original	!	!	!	!	!	!	!	!	!	!	!	!	!
8c\L	.	.	16cc\LL	.	16ee\LL	.	8c\	Mun-	mun-	8G/	-lei-	-lei-	8e\	Pa-	Pa-	8cc\	Chri-	Chri-	.	.
.	.	.	16cc\	.	16ee\	.	.	.	.	.	.	.	.	.	.	.	.	.	.	.
8c\	.	.	16cc\	.	16ee\	.	8c\	-di	-di	8G/	-son	-son	16e\	-ter	-ter	16cc\	-ste	-ste	.	.
.	.	.	16ee\JJ	.	16ccc\JJ	.	.	.	.	.	.	.	16e\	de	de	16cc\	ex-	ex-	.	.
8B\	.	.	16cc\LL	.	16ee\LL	.	8B\	de-	De-	8c\	San-	San-	16g\	Cae-	cae-	16ee\	-au-	-au-	.	.
.	.	.	16cc\	.	16ee\	.	.	.	.	.	.	.	16g\	-lis	-lis	16ee\	-di	-di	.	.
8B\J	.	.	16cc\	.	16ee\	.	8B\	-us	-us	8c\	-cta	-cta	16g\	de-	De-	8ee\	nos	nos	.	.
.	.	.	16ee\JJ	.	16ccc\JJ	.	.	.	.	.	.	.	16g\	-us	-us	.	.	.	.	.
!	!	!	!	!	!	!	!	!	!	!LO:LB:g=original	!	!	!LO:LB:g=original	!	!	!	!	!	!	!
=16	=16	=16	=16	=16	=16	=16	=16	=16	=16	=16	=16	=16	=16	=16	=16	=16	=16	=16	=16	=16
8A\L	.	.	16cc\LL	.	16ee\LL	.	4A\	mi-	mi-	8c\	Vir-	Vir-	16a\	mi-	mi-	8ee\	San-	San-	1ryy	1ryy
.	.	.	16cc\	.	16ee\	.	.	.	.	.	.	.	16a\	-se-	-se-	.	.	.	.	.
8A\	.	.	16cc\	.	16ee\	.	.	.	.	8c\	-go	-go	16a\	-re-	-re-	8ee\	-cta	-cta	.	.
.	.	.	16ee\JJ	.	16ccc\JJ	.	.	.	.	.	.	.	16a\	-re	-re	.	.	.	.	.
8E\	6	.	16cc\LL	.	16ee\LL	.	4E\	-se-	-se-	8c\	Vir-	vir-	8g\	no-	no-	16ee\	Tri-	Tri-	.	.
.	.	.	16cc\	.	16ee\	.	.	.	.	.	.	.	.	.	.	16ee\	-ni-	-ni-	.	.
8E\J	.	.	16cc\	.	16ee\	.	.	.	.	8c\	-gi-	-gi-	8g\	-bis	-bis	8ee\	-tas	-tas	.	.
.	.	.	16ee\JJ	.	16ccc\JJ	.	.	.	.	.	.	.	.	.	.	.	.	.	.	.
!	!	!	!	!	!	!	!	!	!	!	!	!	!	!	!	!LO:LB:g=original	!	!	!	!
8F\L	7_	.	16cc\LL	.	16ee\LL	.	4F\	-re-	-re-	8c\	-num	-num	8a\	San-	San-	8ee\	u-	u-	.	.
.	.	.	16cc\	.	16ee\	.	.	.	.	.	.	.	.	.	.	.	.	.	.	.
8F\	x	.	16cc\	.	16ee\	.	.	.	.	8c\	o-	o-	16a\	-cta	-cta	8ee\	-nus	-nus	.	.
.	.	.	16ee\JJ	.	16ccc\JJ	.	.	.	.	.	.	.	16a\	Ma-	Ma-	.	.	.	.	.
8F#X\	x	.	16cc\LL	.	16ee\LL	.	4F#X\	.	.	8A\	-ra	-ra	8cc\	-ri-	-ri-	8ee\	De-	De-	.	.
.	.	.	16cc\	.	16ee\	.	.	.	.	.	.	.	.	.	.	.	.	.	.	.
8F#\J	x	.	16cc\	.	16ee\	.	.	.	.	8A\	pro	pro	8cc\	-a	-a	8ee\	-us	-us	.	.
.	.	.	16ee\JJ	.	16ccc\JJ	.	.	.	.	.	.	.	.	.	.	.	.	.	.	.
!	!	!	!	!	!LO:LB:g=original	!	!	!	!	!	!	!	!	!	!	!	!	!	!	!
=17	=17	=17	=17	=17	=17	=17	=17	=17	=17	=17	=17	=17	=17	=17	=17	=17	=17	=17	=17	=17
4G\	.	.	16b\LL	.	16dd\LL	.	4G\	.	.	8B\	no-	no-	8b\	San-	San-	8dd\	mi-	mi-	1ryy	1ryy
.	.	.	16b\	.	16dd\	.	.	.	.	.	.	.	.	.	.	.	.	.	.	.
.	.	.	16b\	.	16dd\	.	.	.	.	8B\	-bis	-bis	8g\	-cta	-cta	8dd\	-se-	-se-	.	.
.	.	.	16dd\JJ	.	16bb\JJ	.	.	.	.	.	.	.	.	.	.	.	.	.	.	.
4Fn\	4 2	.	16b\LL	.	16dd\LL	.	4Fn\	.	.	16B\	Ma-	Ma-	8g\	de-	De-	8dd\	-re-	-re-	.	.
.	.	.	16b\	.	16dd\	.	.	.	.	16B\	-ter	-ter	.	.	.	.	.	.	.	.
.	.	.	16b\	.	16dd\	.	.	.	.	16B\	Chri-	Chri-	8g\	-i	-i	8dd\	-re	-re	.	.
.	.	.	16dd\JJ	.	16bb\JJ	.	.	.	.	16B\	-sti	-sti	.	.	.	.	.	.	.	.
!	!	!	!LO:LB:g=original	!	!	!	!	!	!	!	!	!	!	!	!	!	!	!	!	!
8E\L	.	.	16ee\LL	.	16ccc\LL	.	8E\L	.	.	8c\	Ma-	Ma-	8g\	ge-	Ge-	8ee\L	no-	no-	.	.
.	.	.	16ee\	.	16ccc\	.	.	.	.	.	.	.	.	.	.	.	.	.	.	.
!	!	!	!	!	!	!	!LO:SIC:v:s=8D\J	!	!	!	!	!	!	!	!	!	!	!	!	!
8D\	.	.	16ff\	.	16bb\	.	8D\	.	.	16d\	-ter	-ter	8b\	-ne-	-ne-	8ff\J	.	.	.	.
.	.	.	16ff\JJ	.	16bb\JJ	.	.	.	.	16d\	di-	Di-	.	.	.	.	.	.	.	.
!	!	!	!	!	!	!	!LO:SIC:v:s=8E\L	!	!	!	!	!	!	!	!	!	!	!	!	!
8E\	.	.	16ee\LL	.	16ccc\LL	.	8E\	-re	-re	8G/	-vi-	-vi-	8cc\	-trix	-trix	8ee\L	.	.	.	.
.	.	.	16ee\	.	16ccc\	.	.	.	.	.	.	.	.	.	.	.	.	.	.	.
8C\J	.	.	16cc\	.	16ee\	.	8C\J	.	.	8G/	-nae	-nae	8e\	o-	o-	8cc\J	.	.	.	.
.	.	.	16cc\JJ	.	16ee\JJ	.	.	.	.	.	.	.	.	.	.	.	.	.	.	.
=18	=18	=18	=18	=18	=18	=18	=18	=18	=18	=18	=18	=18	=18	=18	=18	=18	=18	=18	=18	=18
!LO:TX:t=P:problem=mixed beam:mod=	!	!	!	!	!	!	!	!	!	!	!	!	!	!	!	!	!	!	!	!
8G\L	4_	.	16dd\LL	.	16dd\LL	.	4G\	no-	no-	4.G/	gra-	gra-	8d\	-ra	-ra	4cc\	.	.	1ryy	1ryy
.	.	.	16dd\	.	16dd\	.	.	.	.	.	.	.	.	.	.	.	.	.	.	.
8G\	.	.	16dd\	.	16ccc\	.	.	.	.	.	.	.	8d\	pro	pro	.	.	.	.	.
.	.	.	16dd\JJ	.	16ccc\JJ	.	.	.	.	.	.	.	.	.	.	.	.	.	.	.
8GG/	3	.	16dd\LL	.	16dd\LL	.	4GG/	.	.	.	.	.	4d\	no-	no-	4b\	.	.	.	.
.	.	.	16dd\	.	16dd\	.	.	.	.	.	.	.	.	.	.	.	.	.	.	.
8GG/J	.	.	16dd\	.	16bb\	.	.	.	.	8G/	-ti-	-ti-	.	.	.	.	.	.	.	.
.	.	.	16dd\JJ	.	16bb\JJ	.	.	.	.	.	.	.	.	.	.	.	.	.	.	.
!	!	!	!	!	!	!	!	!	!	!	!	!	!LO:N:vis=8	!	!	!	!	!	!	!
4C/	.	.	4ee\	.	4ccc\	.	4C/	-bis	-bis	4G/	-ae	-ae	4e\	-bis	-bis	4cc\	-bis	-bis	.	.
!	!	!	!LO:TX:t=P:problem=belki w środku w tt. 18-20:mod=	!	!	!	!	!	!	!	!	!	!	!	!	!	!	!	!	!
8r	.	.	16ggLL 16g\	.	16gg\LL	.	8r	.	.	8r	.	.	8r	.	.	8r	.	.	.	.
.	.	.	16gg 16g\	.	16ee\	.	.	.	.	.	.	.	.	.	.	.	.	.	.	.
*	*	*	*	*	*	*	*	*	*	*	*	*	*	*	*	*	*ij	*ij	*	*
8C/	.	.	16gg 16g\	.	16gg\	.	8C/	Spi-	Spi-	8e\	o-	o-	8g\	o-	o-	8gg\	no-	no-	.	.
.	.	.	16ggJJ 16g\	.	16ee\JJ	.	.	.	.	.	.	.	.	.	.	.	.	.	.	.
=19	=19	=19	=19	=19	=19	=19	=19	=19	=19	=19	=19	=19	=19	=19	=19	=19	=19	=19	=19	=19
!	!	!	!LO:MO:mod=*null:null	!	!	!	!	!	!	!	!	!	!	!	!	!	!	!	!	!
*	*	*	*2\right	*	*	*	*	*	*	*	*	*	*	*	*	*	*	*	*	*
*	*	*	*tremolo	*	*	*	*	*	*	*	*	*	*	*	*	*	*	*	*	*
!LO:TX:t=P:problem=mixed beam:mod=	!	!	!	!	!	!	!	!	!	!	!	!	!	!	!	!	!	!	!	!
8D/L	3_	.	16gg 16g\LL	.	8ff\L	.	8D/	-ri-	-ri-	4d\	-ra	-ra	4g\	-ra	-ra	4ff\	-bis	-bis	1ryy	1ryy
.	.	.	16gg 16g\	.	.	.	.	.	.	.	.	.	.	.	.	.	.	.	.	.
8BB/	x	.	16gg 16g\	.	8dd\J	.	8BB/	-tus	-tus	.	.	.	.	.	.	.	.	.	.	.
.	.	.	16gg 16g\	.	.	.	.	.	.	.	.	.	.	.	.	.	.	.	.	.
8GG/	x	.	16gg 16g\	.	16bb\LL	.	8GG/	San-	San-	8r	.	.	8r	.	.	8r	.	.	.	.
.	.	.	16gg 16g\	.	16gg\	.	.	.	.	.	.	.	.	.	.	.	.	.	.	.
8F\J	x	.	16gg 16g\	.	16ddd\	.	8F\	-cte	-cte	8B\	pro	pro	8g\	o-	o-	8dd\	no-	no-	.	.
.	.	.	16gg 16g\JJ	.	16bb\JJ	.	.	.	.	.	.	.	.	.	.	.	.	.	.	.
!	!	!	!	!	!	!	!	!	!	!LO:LB:g=original	!	!	!LO:LB:g=original	!	!	!	!	!	!	!
4E\	6	.	16gg 16g\LL	.	8ccc\L	.	8E\	de-	De-	8c\	no-	no-	4g\	-ra	-ra	4ee\	-bis	-bis	.	.
*	*	*	*	*	*	*	*	*	*	*	*	*	*	*	*	*	*Xij	*Xij	*	*
.	.	.	16gg 16g\	.	.	.	.	.	.	.	.	.	.	.	.	.	.	.	.	.
.	.	.	16gg 16g\	.	8gg\J	.	8E\	-us	-us	8c\	-bis	-bis	.	.	.	.	.	.	.	.
.	.	.	16gg 16g\	.	.	.	.	.	.	.	.	.	.	.	.	.	.	.	.	.
8r	.	.	16gg 16g\	.	16gg\LL	.	8r	.	.	8r	.	.	8r	.	.	8r	.	.	.	.
.	.	.	16gg 16g\	.	16ee\	.	.	.	.	.	.	.	.	.	.	.	.	.	.	.
*	*	*	*	*	*	*	*	*	*	*	*	*	*	*ij	*ij	*	*	*	*	*
8c\	.	.	16gg 16g\	.	16gg\	.	8c\	mi-	mi-	8e\	o-	o-	8g\	o-	o-	8gg\	no-	no-	.	.
.	.	.	16gg 16g\JJ	.	16ee\JJ	.	.	.	.	.	.	.	.	.	.	.	.	.	.	.
!LO:LB:g=original	!	!	!	!	!LO:LB:g=original	!	!LO:LB:g=original	!	!	!	!	!	!	!	!	!LO:LB:g=original	!	!	!	!
=20	=20	=20	=20	=20	=20	=20	=20	=20	=20	=20	=20	=20	=20	=20	=20	=20	=20	=20	=20	=20
8d\L	.	.	16gg 16g\LL	.	8ff\L	.	8d\	.	.	4d\	-ra	-ra	4g\	-ra	-ra	4ff\	-bis	-bis	1ryy	1ryy
*	*	*	*	*	*	*	*	*	*	*	*	*	*	*Xij	*Xij	*	*	*	*	*
.	.	.	16gg 16g\	.	.	.	.	.	.	.	.	.	.	.	.	.	.	.	.	.
8B\	.	.	16gg 16g\	.	8dd\J	.	8B\	-se-	-se-	.	.	.	.	.	.	.	.	.	.	.
.	.	.	16gg 16g\	.	.	.	.	.	.	.	.	.	.	.	.	.	.	.	.	.
8G\	3_	.	16gg 16g\	.	16bb\LL	.	8G\	-re-	-re-	8r	.	.	8r	.	.	8r	.	.	.	.
.	.	.	16gg 16g\	.	16gg\	.	.	.	.	.	.	.	.	.	.	.	.	.	.	.
*	*	*	*	*	*	*	*	*	*	*	*ij	*ij	*	*	*	*	*ij	*ij	*	*
8F\J	x	.	16gg 16g\	.	16ddd\	.	8F\	-re	-re	8B\	o-	o-	8g\	pro	pro	8dd\	no-	no-	.	.
.	.	.	16gg 16g\JJ	.	16bb\JJ	.	.	.	.	.	.	.	.	.	.	.	.	.	.	.
4E\	.	.	16gg 16g\LL	.	8ccc\L	.	8E\	no-	no-	8c\	-ra	-ra	8g\	no-	no-	8ee\	-bis	-bis	.	.
*	*	*	*	*	*	*	*	*	*	*	*Xij	*Xij	*	*	*	*	*Xij	*Xij	*	*
.	.	.	16gg 16g\	.	.	.	.	.	.	.	.	.	.	.	.	.	.	.	.	.
.	.	.	16gg 16g\	.	8gg\J	.	8E\	-bis	-bis	8e\	pro	pro	8cc\	-bis	-bis	8gg\	Ma-	Ma-	.	.
.	.	.	16gg 16g\	.	.	.	.	.	.	.	.	.	.	.	.	.	.	.	.	.
8C\L	.	.	16gg 16g\	.	16gg\LL	.	8C/	San-	San-	8e\	no-	no-	8cc\	Ma-	Ma-	8gg\	-ter	-ter	.	.
.	.	.	16gg 16g\	.	16ee\	.	.	.	.	.	.	.	.	.	.	.	.	.	.	.
8E\J	.	.	16gg 16g\	.	16ccc\	.	16E/	-cta	-cta	8e\	-bis	-bis	16cc\	-ter	-ter	8gg\	pu-	pu-	.	.
.	.	.	16gg 16g\JJ	.	16gg\JJ	.	16E/	Ma-	Ma-	.	.	.	16cc\	in-	in-	.	.	.	.	.
!	!	!	!	!	!	!	!	!	!	!	!	!	!LO:LB:g=original	!	!	!	!	!	!	!
=21	=21	=21	=21	=21	=21	=21	=21	=21	=21	=21	=21	=21	=21	=21	=21	=21	=21	=21	=21	=21
*	*	*	*Xtremolo	*	*	*	*	*	*	*	*	*	*	*	*	*	*	*	*	*
!	!	!	!	!	!LO:TX:t=P:problem=mixed beam:mod=	!	!	!	!	!	!	!	!	!	!	!	!	!	!	!
!	!	!	!	!	!	!	!	!	!	!	!	!	!LO:TX:t=P:problem=2 takty skreślone:mod=	!	!	!	!	!	!	!
8F\L	.	.	16cc\LL	.	8aa\L	.	8F\	-ri-	-ri-	8r	.	.	8cc\	-vi-	-vi-	8a\	-riſ-	-riſ-	1ryy	1ryy
.	.	.	16cc\	.	.	.	.	.	.	.	.	.	.	.	.	.	.	.	.	.
8A\J	.	.	16cc\	.	8f/J	.	8A\	-a	-a	8f\	o-	o-	8cc\	-o-	-o-	8a\	-si-	-si-	.	.
.	.	.	16cc\JJ	.	.	.	.	.	.	.	.	.	.	.	.	.	.	.	.	.
*	*	*	*tremolo	*	*	*	*	*	*	*	*	*	*	*	*	*	*	*	*	*
8BB/L	.	.	16ff\LL	.	16ff\LL	.	8BB/	o-	o-	4d\	-ra	-ra	8b\	-la-	-la-	4ff\	-ma	-ma	.	.
.	.	.	16ff\	.	16dd\	.	.	.	.	.	.	.	.	.	.	.	.	.	.	.
8D/J	.	.	16ff\	.	16bb\	.	16D\	-ra	-ra	.	.	.	8b\	-ta	-ta	.	.	.	.	.
.	.	.	16ff\JJ	.	16ff\JJ	.	16D\	pro	pro	.	.	.	.	.	.	.	.	.	.	.
!	!	!	!	!	!LO:TX:t=P:problem=mixed beam:mod=	!	!	!	!	!	!	!	!	!	!	!	!	!	!	!
8E\L	.	.	16b\LL	.	8gg\L	.	8E\	no-	no-	8r	.	.	8b\	Ma-	Ma-	4g\	Ma-	Ma-	.	.
.	.	.	16b\	.	.	.	.	.	.	.	.	.	.	.	.	.	.	.	.	.
*	*	*	*	*	*	*	*	*	*	*	*ij	*ij	*	*	*	*	*	*	*	*
8G\J	.	.	16b\	.	8e/J	.	8G\	-bis	-bis	8e\	o-	o-	16b\	-ter	-ter	.	.	.	.	.
.	.	.	16b\JJ	.	.	.	.	.	.	.	.	.	16b\	in-	in-	.	.	.	.	.
8AA/L	.	.	16ee\LL	.	16ee\LL	.	8AA/	Ma-	Ma-	4c\	-ra	-ra	8a\	-te-	-te-	8ee\	-ter	-ter	.	.
.	.	.	16ee\	.	16cc\	.	.	.	.	.	.	.	.	.	.	.	.	.	.	.
8C/J	.	.	16ee\	.	16aa\	.	8C/	-ter	-ter	.	.	.	8a\	-me-	-me-	8ee\	Caſ-	caſ-	.	.
.	.	.	16ee\JJ	.	16ee\JJ	.	.	.	.	.	.	.	.	.	.	.	.	.	.	.
!	!	!	!LO:LB:g=original	!	!	!	!LO:LB:g=original	!	!	!	!	!	!	!	!	!	!	!	!	!
=22	=22	=22	=22	=22	=22	=22	=22	=22	=22	=22	=22	=22	=22	=22	=22	=22	=22	=22	=22	=22
!	!	!	!	!	!LO:TX:t=P:problem=mixed beam:mod=	!	!	!	!	!	!	!	!	!	!	!	!	!	!	!
8D\L	.	.	16a\LL	.	8ff\L	.	8D\	cre-	Cre-	8r	.	.	8a\	-ra-	-ra-	8f/	-tiſ-	-tiſ-	1ryy	1ryy
.	.	.	16a\	.	.	.	.	.	.	.	.	.	.	.	.	.	.	.	.	.
8F\J	.	.	16a\	.	8d/J	.	8F\	-a-	-a-	8d\	o-	o-	16a\	-ta	-ta	8f/	-si-	-si-	.	.
.	.	.	16a\JJ	.	.	.	.	.	.	.	.	.	16a\	o-	o-	.	.	.	.	.
8GG/L	.	.	16dd\LL	.	16dd\LL	.	8GG/	-to-	-to-	4B\	-ra	-ra	8g\	-ra	-ra	8dd\	-ma	-ma	.	.
.	.	.	16dd\	.	16b\	.	.	.	.	.	.	.	.	.	.	.	.	.	.	.
8BB/J	.	.	16dd\	.	16gg\	.	8BB/	-ris	-ris	.	.	.	8g\	pro	pro	8dd\	o-	o-	.	.
.	.	.	16dd\JJ	.	16dd\JJ	.	.	.	.	.	.	.	.	.	.	.	.	.	.	.
!	!	!	!	!	!LO:TX:t=P:problem=mixed beam:mod=	!	!	!	!	!	!	!	!	!	!	!	!	!	!	!
8C\L	.	.	16g/LL	.	8ee\L	.	8C\	Ma-	Ma-	8r	.	.	8g\	no-	no-	8e/	-ra	-ra	.	.
.	.	.	16g/	.	.	.	.	.	.	.	.	.	.	.	.	.	.	.	.	.
8E\	.	.	16g/	.	8c/J	.	8E\	-ter	-ter	8c\	o-	o-	8g\	-bis	-bis	8e/	pro	pro	.	.
.	.	.	16g/JJ	.	.	.	.	.	.	.	.	.	.	.	.	.	.	.	.	.
8F\	.	.	16cc\LL	.	16cc\LL	.	8F\	Sal-	Sal-	4A\	-ra	-ra	8f\	Vir-	Vir-	8cc\	no-	no-	.	.
.	.	.	16cc\	.	16a\	.	.	.	.	.	.	.	.	.	.	.	.	.	.	.
8A\J	.	.	16cc\	.	16ff\	.	8A\	-va-	-va-	.	.	.	8f\	-go	-go	8cc\	-bis	-bis	.	.
.	.	.	16cc\JJ	.	16cc\JJ	.	.	.	.	.	.	.	.	.	.	.	.	.	.	.
!	!	!	!	!	!LO:LB:g=original	!	!	!	!	!	!	!	!	!	!	!LO:LB:g=original	!	!	!	!
=23	=23	=23	=23	=23	=23	=23	=23	=23	=23	=23	=23	=23	=23	=23	=23	=23	=23	=23	=23	=23
!	!	!	!	!	!LO:TX:t=P:problem=mixed beam:mod=	!	!	!	!	!	!	!	!	!	!	!	!	!	!	!
8B\L	.	.	16f/LL	.	8dd\L	.	8B\	-to-	-to-	8r	.	.	8f\	po-	po-	8d/	Vir-	Vir-	1ryy	1ryy
.	.	.	16f/	.	.	.	.	.	.	.	.	.	.	.	.	.	.	.	.	.
8d\	.	.	16f/	.	8B/J	.	8d\	-ris	-ris	8B\	o-	o-	8f\	-tens	-tens	8d/	-go	-go	.	.
.	.	.	16f/JJ	.	.	.	.	.	.	.	.	.	.	.	.	.	.	.	.	.
8E\	.	.	16b\LL	.	16b\LL	.	8E\L	o-	o-	4G#X/	-ra	-ra	8e\	Vir-	Vir-	8b\	pru-	pru-	.	.
*	*	*	*	*	*	*	*	*	*	*	*Xij	*Xij	*	*	*	*	*	*	*	*
.	.	.	16b\	.	16g#X\	.	.	.	.	.	.	.	.	.	.	.	.	.	.	.
8G#X\J	.	.	16b\	.	16ee\	.	8G#X\J	.	.	.	.	.	8e\	-go	-go	8b\	-den-	-den-	.	.
.	.	.	16b\JJ	.	16b\JJ	.	.	.	.	.	.	.	.	.	.	.	.	.	.	.
*	*	*	*Xtremolo	*	*	*	*	*	*	*	*	*	*	*	*	*	*	*	*	*
!LO:TX:t=P:problem=mixed beam:mod=	!	!	!	!	!	!	!	!	!	!	!	!	!	!	!	!	!	!	!	!
8A\L	.	.	16eLL 16c/	.	16cc\LL	.	8A\	-ra	-ra	8r	.	.	8e\	Cle-	cle-	8cc\	-tiſ-	-tiſ-	.	.
.	.	.	16e 16c/	.	16a\JJ	.	.	.	.	.	.	.	.	.	.	.	.	.	.	.
8AA/	.	.	16e 16c/	.	8.aa\L	.	8AA/	pro	pro	8A\	pro	pro	8e\	-mens	-mens	16cc\	-si-	-si-	.	.
.	.	.	16eJJ 16c/	.	.	.	.	.	.	.	.	.	.	.	.	16cc\	-ma	-ma	.	.
*	*	*	*tremolo	*	*	*	*	*	*	*	*	*	*	*	*	*	*	*	*	*
8C/	.	.	16e 16c/LL	.	.	.	8C/	no-	no-	8c\	no-	no-	8a\	Vir-	Vir-	8ee\	Vir-	Vir-	.	.
.	.	.	16e 16c/	.	16ee\L	.	.	.	.	.	.	.	.	.	.	.	.	.	.	.
8AA/J	.	.	16e 16c/	.	16cc\	.	8AA/	-bis	-bis	16c\	-bis	-bis	16a\	-go	-go	8ee\	-go	-go	.	.
.	.	.	16e 16c/JJ	.	16a\JJ	.	.	.	.	16c\	Ma-	Ma-	16a\	fi-	fi-	.	.	.	.	.
!	!	!	!	!	!	!	!	!	!	!LO:LB:g=original	!	!	!LO:LB:g=original	!	!	!	!	!	!	!
=24	=24	=24	=24	=24	=24	=24	=24	=24	=24	=24	=24	=24	=24	=24	=24	=24	=24	=24	=24	=24
8r	.	.	8B/L	.	16g#X/LL	.	8r	.	.	8B\	-ter	-ter	8g#X\L	-de-	-de-	8ee\	Ve-	ve-	1ryy	1ryy
.	.	.	.	.	16e/JJ	.	.	.	.	.	.	.	.	.	.	.	.	.	.	.
8E\L	.	.	8e/	.	8.ee\L	.	16E\	Vas	Vas	8G#X/	a-	a-	8e\	.	.	8ee\	-ne-	-ne-	.	.
.	.	.	.	.	.	.	16E\	Spi-	spi-	.	.	.	.	.	.	.	.	.	.	.
8F#X\	.	.	8f#X/	.	.	.	8F#X\	-ri-	-ri-	8A\	-ma-	-ma-	8f#X\	.	.	8dd\	-ran-	-ran-	.	.
.	.	.	.	.	16dd\L	.	.	.	.	.	.	.	.	.	.	.	.	.	.	.
8G#X\J	.	.	8g#X/J	.	16cc\	.	8G#X\	-tu-	-tu-	8B\	-bi-	-bi-	8g#\J	.	.	8dd\	-da	-da	.	.
.	.	.	.	.	16b\JJ	.	.	.	.	.	.	.	.	.	.	.	.	.	.	.
!	!	!	!	!	!	!	!LO:LB:g=original	!	!	!	!	!	!	!	!	!	!	!	!	!
8A\L	.	.	16e 16c/LL	.	16cc\LL	.	4A\	-a-	-a-	8c\	-lis	-lis	4a\	-lis	-lis	8cc\	Vir-	Vir-	.	.
.	.	.	16e 16c/	.	16a\JJ	.	.	.	.	.	.	.	.	.	.	.	.	.	.	.
8A\	.	.	16e 16c/	.	8.aa\L	.	.	.	.	16e\	Ma-	Ma-	.	.	.	8cc\	-go	-go	.	.
.	.	.	16e 16c/JJ	.	.	.	.	.	.	16e\	-ter	-ter	.	.	.	.	.	.	.	.
8c\	.	.	16e 16c/LL	.	.	.	8c\L	-le	-le	8A\	ad-	ad-	4cc\	o-	o-	8ee\	prae-	prae-	.	.
.	.	.	16e 16c/	.	16ee\L	.	.	.	.	.	.	.	.	.	.	.	.	.	.	.
8A\J	.	.	16e 16c/	.	16cc\	.	8A\J	.	.	8A\	-mi-	-mi-	.	.	.	8ee\	-di-	-di-	.	.
.	.	.	16e 16c/JJ	.	16a\JJ	.	.	.	.	.	.	.	.	.	.	.	.	.	.	.
*	*	*	*Xtremolo	*	*	*	*	*	*	*	*	*	*	*	*	*	*	*	*	*
=25	=25	=25	=25	=25	=25	=25	=25	=25	=25	=25	=25	=25	=25	=25	=25	=25	=25	=25	=25	=25
8r	.	.	8B/L	.	16g#X/LL	.	8r	.	.	4G#X\	-ra-	-ra-	8b\	-ra	-ra	4ee\	-can-	-can-	1ryy	1ryy
.	.	.	.	.	16e/JJ	.	.	.	.	.	.	.	.	.	.	.	.	.	.	.
8E\L	.	.	8e/	.	8.ee\L	.	8E\	Vas	Vas	.	.	.	8e\	pro	pro	.	.	.	.	.
8F#X\	.	.	8f#X/	.	.	.	8F#X\	ho-	ho-	8A\L	-bi-	-bi-	8f#X\L	no-	no-	4dd\	.	.	.	.
.	.	.	.	.	16dd\L	.	.	.	.	.	.	.	.	.	.	.	.	.	.	.
8G#X\J	.	.	8g#X/J	.	16cc\	.	8G#X\	-no-	-no-	8B\J	.	.	8g#X\J	.	.	.	.	.	.	.
.	.	.	.	.	16b\JJ	.	.	.	.	.	.	.	.	.	.	.	.	.	.	.
!LO:LB:g=original	!	!	!	!	!	!	!	!	!	!	!	!	!	!	!	!	!	!	!	!
8A\L	.	.	8a/L	.	16cc\LL	.	8A\	-ra-	-ra-	8E/	-lis	-lis	8a\	-bis	-bis	8cc\	-da	-da	.	.
.	.	.	.	.	16ee\	.	.	.	.	.	.	.	.	.	.	.	.	.	.	.
8B\	.	.	8b/	.	16dd\	.	8B\	-bi-	-bi-	8r	.	.	8r	.	.	8r	.	.	.	.
.	.	.	.	.	16ff\JJ	.	.	.	.	.	.	.	.	.	.	.	.	.	.	.
*	*	*	*	*	*	*	*	*	*	*	*	*	*	*ij	*ij	*	*	*	*	*
8c\	.	.	8cc/	.	16ee\LL	.	8c\	-le	-le	4c\	o-	o-	4a\	o-	o-	4ee\	o-	o-	.	.
.	.	.	.	.	16aa\	.	.	.	.	.	.	.	.	.	.	.	.	.	.	.
8A\J	.	.	8a/J	.	16ee\	.	8A\	o-	o-	.	.	.	.	.	.	.	.	.	.	.
.	.	.	.	.	16cc\JJ	.	.	.	.	.	.	.	.	.	.	.	.	.	.	.
!	!	!	!LO:LB:g=original	!	!LO:LB:g=original	!	!	!	!	!	!	!	!	!	!	!LO:LB:g=original	!	!	!	!
=26	=26	=26	=26	=26	=26	=26	=26	=26	=26	=26	=26	=26	=26	=26	=26	=26	=26	=26	=26	=26
*	*	*	*tremolo	*	*	*	*	*	*	*	*	*	*	*	*	*	*	*	*	*
8G#X\L	.	.	8e/L	.	16b\LL	.	8G#X\L	.	.	8B\	-ra	-ra	8g#X\	-ra	-ra	8ee\	-ra	-ra	1ryy	1ryy
.	.	.	.	.	16ee\	.	.	.	.	.	.	.	.	.	.	.	.	.	.	.
8A\	.	.	8e/	.	16cc\	.	8A\	.	.	8c\	pro	pro	8a\	pro	pro	8ee\	pro	pro	.	.
.	.	.	.	.	16ee\JJ	.	.	.	.	.	.	.	.	.	.	.	.	.	.	.
8B\	.	.	8e/	.	16dd\LL	.	8B\	.	.	8d\L	no-	no-	8b\L	no-	no-	4ee\	no-	no-	.	.
.	.	.	.	.	16ee\	.	.	.	.	.	.	.	.	.	.	.	.	.	.	.
8G#\J	.	.	8e/J	.	16b\	.	8G#\J	.	.	8B\J	.	.	8g#\J	.	.	.	.	.	.	.
.	.	.	.	.	16ee\JJ	.	.	.	.	.	.	.	.	.	.	.	.	.	.	.
*	*	*	*Xtremolo	*	*	*	*	*	*	*	*	*	*	*	*	*	*	*	*	*
8A\L	.	.	16a\LL	.	16cc\LL	.	8A\L	.	.	8c\	-bis	-bis	8a\	-bis	-bis	8ee\	-bis	-bis	.	.
.	.	.	16cc\	.	16ee\	.	.	.	.	.	.	.	.	.	.	.	.	.	.	.
8B\	.	.	16b\	.	16dd\	.	8B\	.	.	8r	.	.	8r	.	.	8r	.	.	.	.
.	.	.	16dd\JJ	.	16ff\JJ	.	.	.	.	.	.	.	.	.	.	.	.	.	.	.
*	*	*	*	*	*	*	*	*	*	*	*ij	*ij	*	*	*	*	*	*	*	*
!	!	!	!LO:TX:t=P:problem=mixed beam:mod=	!	!	!	!	!	!	!	!	!	!	!	!	!	!	!	!	!
8c\	.	.	16cc\LL	.	16ee\LL	.	8c\	.	.	4c\	o-	o-	4a\	o-	o-	4ee\	o-	o-	.	.
.	.	.	16ee\J	.	16aa\	.	.	.	.	.	.	.	.	.	.	.	.	.	.	.
8A\J	.	.	8e/J	.	16ee\	.	8A\J	.	.	.	.	.	.	.	.	.	.	.	.	.
.	.	.	.	.	16cc\JJ	.	.	.	.	.	.	.	.	.	.	.	.	.	.	.
=27	=27	=27	=27	=27	=27	=27	=27	=27	=27	=27	=27	=27	=27	=27	=27	=27	=27	=27	=27	=27
*	*	*	*tremolo	*	*	*	*	*	*	*	*	*	*	*	*	*	*	*	*	*
!	!	!	!	!	!	!	!	!	!	!	!	!	!LO:SIC:s=8g#\	!	!	!	!	!	!	!
8G#X\L	.	.	8e/L	.	16b\LL	.	8G#X\L	.	.	8B\	-ra	-ra	8g#X\L	-ra	-ra	8ee\	-ra	-ra	1ryy	1ryy
.	.	.	.	.	16ee\	.	.	.	.	.	.	.	.	.	.	.	.	.	.	.
!	!	!	!	!	!	!	!	!	!	!	!	!	!LO:SIC:s=8a\	!	!	!	!	!	!	!
8A\	.	.	8e/	.	16cc\	.	8A\J	.	.	8c\	pro	pro	8a\J	pro	pro	8ee\	pro	pro	.	.
.	.	.	.	.	16ee\JJ	.	.	.	.	.	.	.	.	.	.	.	.	.	.	.
8B\	.	.	8e/	.	16dd\LL	.	8B\	-ra	-ra	8d\L	no-	no-	8b\L	no-	no-	4ee\	no-	no-	.	.
.	.	.	.	.	16ee\	.	.	.	.	.	.	.	.	.	.	.	.	.	.	.
8G#\J	.	.	8e/J	.	16b\	.	8G#\	pro	pro	8B\J	.	.	8g#\J	.	.	.	.	.	.	.
.	.	.	.	.	16dd\JJ	.	.	.	.	.	.	.	.	.	.	.	.	.	.	.
*	*	*	*Xtremolo	*	*	*	*	*	*	*	*	*	*	*	*	*	*	*	*	*
!	!	!	!LO:TX:t=P:problem=mixed beam:mod=	!	!	!	!	!	!	!	!	!	!	!	!	!	!	!	!	!
4A\	.	.	16e/LL	.	16cc\LL	.	4A\	no-	no-	4c\	-bis	-bis	4a\	-bis	-bis	4ee\	-bis	-bis	.	.
*	*	*	*	*	*	*	*	*	*	*	*Xij	*Xij	*	*Xij	*Xij	*	*	*	*	*
.	.	.	16aa\	.	16aa\	.	.	.	.	.	.	.	.	.	.	.	.	.	.	.
.	.	.	16aa\	.	16aa\	.	.	.	.	.	.	.	.	.	.	.	.	.	.	.
.	.	.	16aa\JJ	.	16aa\JJ	.	.	.	.	.	.	.	.	.	.	.	.	.	.	.
4C#X/	.	.	16aa\LL	.	16aa\LL	.	4C#X/	.	.	4r	.	.	4r	.	.	4r	.	.	.	.
.	.	.	16gg\	.	16gg\	.	.	.	.	.	.	.	.	.	.	.	.	.	.	.
.	.	.	16ff\	.	16ff\	.	.	.	.	.	.	.	.	.	.	.	.	.	.	.
.	.	.	16ee\JJ	.	16ee\JJ	.	.	.	.	.	.	.	.	.	.	.	.	.	.	.
!	!	!	!	!	!	!	!LO:LB:g=original	!	!	!LO:LB:g=original	!	!	!	!	!	!	!	!	!	!
=28	=28	=28	=28	=28	=28	=28	=28	=28	=28	=28	=28	=28	=28	=28	=28	=28	=28	=28	=28	=28
8D/	.	.	16ff\LL	.	16ff\LL	.	8D/	-bis	-bis	2r	.	.	2r	.	.	2r	.	.	1ryy	1ryy
.	.	.	16ddd\	.	16ddd\	.	.	.	.	.	.	.	.	.	.	.	.	.	.	.
8r	.	.	16ddd\	.	16ddd\	.	8r	.	.	.	.	.	.	.	.	.	.	.	.	.
.	.	.	16ddd\JJ	.	16ddd\JJ	.	.	.	.	.	.	.	.	.	.	.	.	.	.	.
8r	.	.	16ddd\LL	.	16ddd\LL	.	8r	.	.	.	.	.	.	.	.	.	.	.	.	.
.	.	.	16ccc\	.	16ccc\	.	.	.	.	.	.	.	.	.	.	.	.	.	.	.
8D\	.	.	16bb\	.	16bb\	.	8D\	o-	o-	.	.	.	.	.	.	.	.	.	.	.
.	.	.	16aa\JJ	.	16aa\JJ	.	.	.	.	.	.	.	.	.	.	.	.	.	.	.
.	.	.	8qqaa/	.	8qqaa/	.	.	.	.	.	.	.	.	.	.	.	.	.	.	.
8E\L	#_	.	8gg#X\L	.	8gg#X\L	.	8E\L	.	.	4r	.	.	4r	.	.	4r	.	.	.	.
.	.	.	8qqff/	.	8qqff/	.	.	.	.	.	.	.	.	.	.	.	.	.	.	.
8D\J	x	.	8ee\J	.	8ee\J	.	8D\J	.	.	.	.	.	.	.	.	.	.	.	.	.
8C\L	6	.	16aa\LL	.	16aa\LL	.	8C\	-ra	-ra	8r	.	.	8r	.	.	8r	.	.	.	.
.	.	.	16ff\	.	16ff\	.	.	.	.	.	.	.	.	.	.	.	.	.	.	.
8D\J	.	.	16ee\	.	16ee\	.	8D\	pro	pro	8f\	pro	pro	8b\	pro	pro	8dd\	pro	pro	.	.
.	.	.	16dd\JJ	.	16dd\JJ	.	.	.	.	.	.	.	.	.	.	.	.	.	.	.
!	!	!	!LO:LB:g=original	!	!LO:LB:g=original	!	!	!	!	!	!	!	!	!	!	!	!	!	!	!
=29	=29	=29	=29	=29	=29	=29	=29	=29	=29	=29	=29	=29	=29	=29	=29	=29	=29	=29	=29	=29
!	!	!	!	!	!	!	!LO:MO:mod=*null:null	!	!	!	!	!	!LO:MO:mod=*null:null	!	!	!LO:MO:mod=*null:null	!	!	!	!
*	*	*	*	*	*	*	*2\right	*	*	*	*	*	*2\right	*	*	*2\right	*	*	*	*
8E\L	6 4	.	8a\L	.	8cc\L	.	2E\	no-	no-	1e	no-	no-	2a\	no-	no-	2cc\	no-	no-	1ryy	1ryy
!	!	!	!	!	!LO:SIC:s=8aa\:v	!	!	!	!	!	!	!	!	!	!	!	!	!	!	!
8E\	.	.	8cc\	.	8aa 8cc\	.	.	.	.	.	.	.	.	.	.	.	.	.	.	.
8E\	#	.	8a\	.	8cc\	.	.	.	.	.	.	.	.	.	.	.	.	.	.	.
8E\J	.	.	8cc\J	.	8aa\J	.	.	.	.	.	.	.	.	.	.	.	.	.	.	.
*tremolo	*	*	*	*	*	*	*	*	*	*	*	*	*	*	*	*	*	*	*	*
8EE/L	.	.	8g#X\L	.	8b\L	.	2E\	.	.	.	.	.	2g#X\	.	.	2b\	.	.	.	.
8EE/	.	.	8b\	.	8gg#X\	.	.	.	.	.	.	.	.	.	.	.	.	.	.	.
8EE/	.	.	8g#\	.	8b\	.	.	.	.	.	.	.	.	.	.	.	.	.	.	.
!	!	!	!	!	!LO:TX:b:i:t=V&colon; Solo.:mod=	!	!	!	!	!	!	!	!	!	!	!	!	!	!	!
8EE/J	.	.	8b\J	.	8gg#\J	.	.	.	.	.	.	.	.	.	.	.	.	.	.	.
*Xtremolo	*	*	*	*	*	*	*	*	*	*	*	*	*	*	*	*	*	*	*	*
!	!	!	!	!	!LO:PB:g=original	!	!	!	!	!	!	!	!	!	!	!	!	!	!	!
=30	=30	=30	=30	=30	=30	=30	=30	=30	=30	=30	=30	=30	=30	=30	=30	=30	=30	=30	=30	=30
!	!	!	!	!	!	!LO:DY:t= :mod=%s	!	!	!	!	!	!	!	!	!	!	!	!	!	!
!	!	!	!	!	!	!LO:MO:mod=!LO&colon;DY&colon;ed=brack	!	!	!	!	!	!	!	!	!	!	!	!	!	!
!LO:TX:a:i:t=Solo	!	!LO:DY:t=piano. :mod=%s	!	!	!LO:TX:a:i:t=Solo	!null	!	!	!	!	!	!	!	!	!	!	!	!	!	!
8AA/	.	p	8a/	.	16aa\LL	p	8AA/	-bis	-bis.	4e\	-bis	-bis.	4a\	-bis.	-bis.	4cc\	-bis	-bis.	1ryy	1ryy
.	.	.	.	.	16bb\J	.	.	.	.	.	.	.	.	.	.	.	.	.	.	.
8r	.	.	8r	.	8.ccc\J	.	8r	.	.	.	.	.	.	.	.	.	.	.	.	.
8r	.	.	4r	.	.	.	4r	.	.	4r	.	.	4r	.	.	4r	.	.	.	.
.	.	.	.	.	16bb\LL	.	.	.	.	.	.	.	.	.	.	.	.	.	.	.
8D\	#4r 2	.	.	.	16aa\	.	.	.	.	.	.	.	.	.	.	.	.	.	.	.
.	.	.	.	.	16gg#X\JJ	.	.	.	.	.	.	.	.	.	.	.	.	.	.	.
8C/	6	.	2r	.	16aa\LL	.	2r	.	.	2r	.	.	2r	.	.	2r	.	.	.	.
.	.	.	.	.	16bb\J	.	.	.	.	.	.	.	.	.	.	.	.	.	.	.
8r	.	.	.	.	8.ccc\J	.	.	.	.	.	.	.	.	.	.	.	.	.	.	.
8r	.	.	.	.	.	.	.	.	.	.	.	.	.	.	.	.	.	.	.	.
.	.	.	.	.	16bb\LL	.	.	.	.	.	.	.	.	.	.	.	.	.	.	.
8D\	#4r 2	.	.	.	16aa\	.	.	.	.	.	.	.	.	.	.	.	.	.	.	.
.	.	.	.	.	16gg#\JJ	.	.	.	.	.	.	.	.	.	.	.	.	.	.	.
!LO:LB:g=original	!	!	!	!	!	!	!	!	!	!	!	!	!	!	!	!	!	!	!	!
=31	=31	=31	=31	=31	=31	=31	=31	=31	=31	=31	=31	=31	=31	=31	=31	=31	=31	=31	=31	=31
!	!	!	!LO:TX:a:t=7:mod=	!	!	!	!	!	!	!	!	!	!	!	!	!	!	!	!	!
8C/	6	.	1r	.	16aa\LL	.	1r	.	.	1r	.	.	1r	.	.	1r	.	.	1ryy	1ryy
.	.	.	.	.	16bb\	.	.	.	.	.	.	.	.	.	.	.	.	.	.	.
8r	.	.	.	.	16ccc\	.	.	.	.	.	.	.	.	.	.	.	.	.	.	.
.	.	.	.	.	16bb\JJ	.	.	.	.	.	.	.	.	.	.	.	.	.	.	.
.	.	.	.	.	8qqddd/	.	.	.	.	.	.	.	.	.	.	.	.	.	.	.
8F\L	.	.	.	.	8ccc\L	.	.	.	.	.	.	.	.	.	.	.	.	.	.	.
8D#X\J	.	.	.	.	16bb\L	.	.	.	.	.	.	.	.	.	.	.	.	.	.	.
.	.	.	.	.	16aa\JJ	.	.	.	.	.	.	.	.	.	.	.	.	.	.	.
!	!	!	!	!	!LO:SIC:v:s=8qqaa/	!	!	!	!	!	!	!	!	!	!	!	!	!	!	!
.	.	.	.	.	8qqgg/	.	.	.	.	.	.	.	.	.	.	.	.	.	.	.
16E\LL	#	.	.	.	8gg#X\L	.	.	.	.	.	.	.	.	.	.	.	.	.	.	.
16e\	.	.	.	.	.	.	.	.	.	.	.	.	.	.	.	.	.	.	.	.
16d\	.	.	.	.	8ee\J	.	.	.	.	.	.	.	.	.	.	.	.	.	.	.
16e\JJ	.	.	.	.	.	.	.	.	.	.	.	.	.	.	.	.	.	.	.	.
16G#X\LL	.	.	.	.	4ee\	.	.	.	.	.	.	.	.	.	.	.	.	.	.	.
16B\J	.	.	.	.	.	.	.	.	.	.	.	.	.	.	.	.	.	.	.	.
8E\J	.	.	.	.	.	.	.	.	.	.	.	.	.	.	.	.	.	.	.	.
=32	=32	=32	=32	=32	=32	=32	=32	=32	=32	=32	=32	=32	=32	=32	=32	=32	=32	=32	=32	=32
8A\	.	.	1r	.	16a/LL	.	1r	.	.	1r	.	.	1r	.	.	1r	.	.	1ryy	1ryy
.	.	.	.	.	16b/J	.	.	.	.	.	.	.	.	.	.	.	.	.	.	.
8r	.	.	.	.	8.cc/J	.	.	.	.	.	.	.	.	.	.	.	.	.	.	.
8r	.	.	.	.	.	.	.	.	.	.	.	.	.	.	.	.	.	.	.	.
.	.	.	.	.	16b/LL	.	.	.	.	.	.	.	.	.	.	.	.	.	.	.
8d\	#4r 2	.	.	.	16a/	.	.	.	.	.	.	.	.	.	.	.	.	.	.	.
.	.	.	.	.	16g#X/JJ	.	.	.	.	.	.	.	.	.	.	.	.	.	.	.
!	!	!	!	!	!LO:LB:g=original	!	!	!	!	!	!	!	!	!	!	!	!	!	!	!
8c\	6	.	.	.	16a/LL	.	.	.	.	.	.	.	.	.	.	.	.	.	.	.
.	.	.	.	.	16b/J	.	.	.	.	.	.	.	.	.	.	.	.	.	.	.
8r	.	.	.	.	8.cc/J	.	.	.	.	.	.	.	.	.	.	.	.	.	.	.
8r	.	.	.	.	.	.	.	.	.	.	.	.	.	.	.	.	.	.	.	.
.	.	.	.	.	16b/LL	.	.	.	.	.	.	.	.	.	.	.	.	.	.	.
8d\	#4r 2	.	.	.	16a/	.	.	.	.	.	.	.	.	.	.	.	.	.	.	.
.	.	.	.	.	16g#/JJ	.	.	.	.	.	.	.	.	.	.	.	.	.	.	.
=33	=33	=33	=33	=33	=33	=33	=33	=33	=33	=33	=33	=33	=33	=33	=33	=33	=33	=33	=33	=33
8c\	.	.	1r	.	16a/LL	.	1r	.	.	1r	.	.	1r	.	.	1r	.	.	1ryy	1ryy
.	.	.	.	.	16b/	.	.	.	.	.	.	.	.	.	.	.	.	.	.	.
8r	.	.	.	.	16cc/	.	.	.	.	.	.	.	.	.	.	.	.	.	.	.
.	.	.	.	.	16b/JJ	.	.	.	.	.	.	.	.	.	.	.	.	.	.	.
.	.	.	.	.	8qqdd/	.	.	.	.	.	.	.	.	.	.	.	.	.	.	.
8F\L	.	.	.	.	8cc\L	.	.	.	.	.	.	.	.	.	.	.	.	.	.	.
8D#X\J	.	.	.	.	16b\L	.	.	.	.	.	.	.	.	.	.	.	.	.	.	.
.	.	.	.	.	16a\JJ	.	.	.	.	.	.	.	.	.	.	.	.	.	.	.
!!LO:MO:ori
!LO:TX:t=P:problem=fragment do poł. t. 35 zapisany powtórką:mod=	!	!	!LO:TX:t=P:problem=zbędne powtórzenie w org	!	!LO:TX:t=P:problem=zbędne powtórzenie w org	!	!LO:TX:t=P:problem=zbędne powtórzenie w org	!	!	!LO:TX:t=P:problem=zbędne powtórzenie w org	!	!	!LO:TX:t=P:problem=zbędne powtórzenie w org	!	!	!LO:TX:t=P:problem=zbędne powtórzenie w org	!	!	!	!
16E\LL	#	.	.	.	2ryy	.	.	.	.	.	.	.	.	.	.	.	.	.	.	.
16e\	.	.	.	.	.	.	.	.	.	.	.	.	.	.	.	.	.	.	.	.
16d\	.	.	.	.	.	.	.	.	.	.	.	.	.	.	.	.	.	.	.	.
16e\JJ	.	.	.	.	.	.	.	.	.	.	.	.	.	.	.	.	.	.	.	.
16G#X\LL	.	.	.	.	.	.	.	.	.	.	.	.	.	.	.	.	.	.	.	.
16B\J	.	.	.	.	.	.	.	.	.	.	.	.	.	.	.	.	.	.	.	.
8E\J	.	.	.	.	.	.	.	.	.	.	.	.	.	.	.	.	.	.	.	.
=34	=34	=34	=34	=34	=34	=34	=34	=34	=34	=34	=34	=34	=34	=34	=34	=34	=34	=34	=34	=34
8A\	.	.	1ryy	.	1ryy	.	1ryy	.	.	1ryy	.	.	1ryy	.	.	1ryy	.	.	1ryy	1ryy
8r	.	.	.	.	.	.	.	.	.	.	.	.	.	.	.	.	.	.	.	.
8r	.	.	.	.	.	.	.	.	.	.	.	.	.	.	.	.	.	.	.	.
8d\	#4r 2	.	.	.	.	.	.	.	.	.	.	.	.	.	.	.	.	.	.	.
8c\	6	.	.	.	.	.	.	.	.	.	.	.	.	.	.	.	.	.	.	.
8r	.	.	.	.	.	.	.	.	.	.	.	.	.	.	.	.	.	.	.	.
8r	.	.	.	.	.	.	.	.	.	.	.	.	.	.	.	.	.	.	.	.
8d\	#4r 2	.	.	.	.	.	.	.	.	.	.	.	.	.	.	.	.	.	.	.
=35	=35	=35	=35	=35	=35	=35	=35	=35	=35	=35	=35	=35	=35	=35	=35	=35	=35	=35	=35	=35
8c\	.	.	1r	.	2ryy	.	1r	.	.	1r	.	.	1r	.	.	1r	.	.	1ryy	1ryy
8r	.	.	.	.	.	.	.	.	.	.	.	.	.	.	.	.	.	.	.	.
8F\L	.	.	.	.	.	.	.	.	.	.	.	.	.	.	.	.	.	.	.	.
8D#X\J	.	.	.	.	.	.	.	.	.	.	.	.	.	.	.	.	.	.	.	.
!!LO:MO:end
.	.	.	.	.	8qqa/	.	.	.	.	.	.	.	.	.	.	.	.	.	.	.
16E\LL	#	.	.	.	8g#X/L	.	.	.	.	.	.	.	.	.	.	.	.	.	.	.
16e\	.	.	.	.	.	.	.	.	.	.	.	.	.	.	.	.	.	.	.	.
16d\	.	.	.	.	8eeJ 8b 8e/	.	.	.	.	.	.	.	.	.	.	.	.	.	.	.
16e\JJ	.	.	.	.	.	.	.	.	.	.	.	.	.	.	.	.	.	.	.	.
!LO:SIC:v:s=16G#\LL	!	!	!	!	!	!	!	!	!	!	!	!	!	!	!	!	!	!	!	!
16G\LL	.	.	.	.	4ee 4b 4e/	.	.	.	.	.	.	.	.	.	.	.	.	.	.	.
16B\J	.	.	.	.	.	.	.	.	.	.	.	.	.	.	.	.	.	.	.	.
8E\J	.	.	.	.	.	.	.	.	.	.	.	.	.	.	.	.	.	.	.	.
=36	=36	=36	=36	=36	=36	=36	=36	=36	=36	=36	=36	=36	=36	=36	=36	=36	=36	=36	=36	=36
*	*	*	*	*	*^	*	*	*	*	*	*	*	*	*	*	*	*	*	*	*
8E\L	.	.	1r	.	32g#X/LLL	16g#\	.	1r	.	.	1r	.	.	1r	.	.	1r	.	.	1ryy	1ryy
.	.	.	.	.	32b/	.	.	.	.	.	.	.	.	.	.	.	.	.	.	.	.
.	.	.	.	.	32ee/	16ryy	.	.	.	.	.	.	.	.	.	.	.	.	.	.	.
.	.	.	.	.	32b/JJJ	.	.	.	.	.	.	.	.	.	.	.	.	.	.	.	.
8G#X\J	.	.	.	.	32e/LLL	16e\	.	.	.	.	.	.	.	.	.	.	.	.	.	.	.
.	.	.	.	.	32b/	.	.	.	.	.	.	.	.	.	.	.	.	.	.	.	.
.	.	.	.	.	32ee/	16ryy	.	.	.	.	.	.	.	.	.	.	.	.	.	.	.
.	.	.	.	.	32b/JJJ	.	.	.	.	.	.	.	.	.	.	.	.	.	.	.	.
4G#\	.	.	.	.	32g#/LLL	16g#\	.	.	.	.	.	.	.	.	.	.	.	.	.	.	.
.	.	.	.	.	32b/	.	.	.	.	.	.	.	.	.	.	.	.	.	.	.	.
.	.	.	.	.	32ee/	16ryy	.	.	.	.	.	.	.	.	.	.	.	.	.	.	.
.	.	.	.	.	32b/JJJ	.	.	.	.	.	.	.	.	.	.	.	.	.	.	.	.
.	.	.	.	.	32e/LLL	16e\	.	.	.	.	.	.	.	.	.	.	.	.	.	.	.
.	.	.	.	.	32b/	.	.	.	.	.	.	.	.	.	.	.	.	.	.	.	.
.	.	.	.	.	32ee/	16ryy	.	.	.	.	.	.	.	.	.	.	.	.	.	.	.
.	.	.	.	.	32b/JJJ	.	.	.	.	.	.	.	.	.	.	.	.	.	.	.	.
!	!	!	!	!	!LO:LB:g=original	!	!	!	!	!	!	!	!	!	!	!	!	!	!	!	!
8E\L	.	.	.	.	32a/LLL	16a\	.	.	.	.	.	.	.	.	.	.	.	.	.	.	.
.	.	.	.	.	32cc/	.	.	.	.	.	.	.	.	.	.	.	.	.	.	.	.
.	.	.	.	.	32ee/	16ryy	.	.	.	.	.	.	.	.	.	.	.	.	.	.	.
.	.	.	.	.	32cc/JJJ	.	.	.	.	.	.	.	.	.	.	.	.	.	.	.	.
8A\J	.	.	.	.	32e/LLL	16e\	.	.	.	.	.	.	.	.	.	.	.	.	.	.	.
.	.	.	.	.	32cc/	.	.	.	.	.	.	.	.	.	.	.	.	.	.	.	.
.	.	.	.	.	32ee/	16ryy	.	.	.	.	.	.	.	.	.	.	.	.	.	.	.
.	.	.	.	.	32cc/JJJ	.	.	.	.	.	.	.	.	.	.	.	.	.	.	.	.
4A\	.	.	.	.	32a/LLL	16a\	.	.	.	.	.	.	.	.	.	.	.	.	.	.	.
.	.	.	.	.	32cc/	.	.	.	.	.	.	.	.	.	.	.	.	.	.	.	.
.	.	.	.	.	32ee/	16ryy	.	.	.	.	.	.	.	.	.	.	.	.	.	.	.
.	.	.	.	.	32cc/JJJ	.	.	.	.	.	.	.	.	.	.	.	.	.	.	.	.
.	.	.	.	.	32e/LLL	16e\	.	.	.	.	.	.	.	.	.	.	.	.	.	.	.
.	.	.	.	.	32cc/	.	.	.	.	.	.	.	.	.	.	.	.	.	.	.	.
.	.	.	.	.	32ee/	16ryy	.	.	.	.	.	.	.	.	.	.	.	.	.	.	.
.	.	.	.	.	32cc/JJJ	.	.	.	.	.	.	.	.	.	.	.	.	.	.	.	.
!LO:LB:g=original	!	!	!	!	!	!	!	!	!	!	!	!	!	!	!	!	!	!	!	!	!
=37	=37	=37	=37	=37	=37	=37	=37	=37	=37	=37	=37	=37	=37	=37	=37	=37	=37	=37	=37	=37	=37
8E\L	.	.	1r	.	32g#X/LLL	16g#\	.	1r	.	.	1r	.	.	1r	.	.	1r	.	.	1ryy	1ryy
.	.	.	.	.	32b/	.	.	.	.	.	.	.	.	.	.	.	.	.	.	.	.
.	.	.	.	.	32ee/	16ryy	.	.	.	.	.	.	.	.	.	.	.	.	.	.	.
.	.	.	.	.	32b/JJJ	.	.	.	.	.	.	.	.	.	.	.	.	.	.	.	.
8G#X\J	.	.	.	.	32e/LLL	16e\	.	.	.	.	.	.	.	.	.	.	.	.	.	.	.
.	.	.	.	.	32b/	.	.	.	.	.	.	.	.	.	.	.	.	.	.	.	.
.	.	.	.	.	32ee/	16ryy	.	.	.	.	.	.	.	.	.	.	.	.	.	.	.
.	.	.	.	.	32b/JJJ	.	.	.	.	.	.	.	.	.	.	.	.	.	.	.	.
4G#\	.	.	.	.	32g#/LLL	16g#\	.	.	.	.	.	.	.	.	.	.	.	.	.	.	.
.	.	.	.	.	32b/	.	.	.	.	.	.	.	.	.	.	.	.	.	.	.	.
.	.	.	.	.	32ee/	16ryy	.	.	.	.	.	.	.	.	.	.	.	.	.	.	.
.	.	.	.	.	32b/JJJ	.	.	.	.	.	.	.	.	.	.	.	.	.	.	.	.
.	.	.	.	.	32e/LLL	16e\	.	.	.	.	.	.	.	.	.	.	.	.	.	.	.
.	.	.	.	.	32b/	.	.	.	.	.	.	.	.	.	.	.	.	.	.	.	.
.	.	.	.	.	32ee/	16ryy	.	.	.	.	.	.	.	.	.	.	.	.	.	.	.
.	.	.	.	.	32b/JJJ	.	.	.	.	.	.	.	.	.	.	.	.	.	.	.	.
!	!	!	!	!	!LO:LB:g=original	!	!	!	!	!	!	!	!	!	!	!	!	!	!	!	!
8E\L	.	.	.	.	32a/LLL	16a\	.	.	.	.	.	.	.	.	.	.	.	.	.	.	.
.	.	.	.	.	32cc/	.	.	.	.	.	.	.	.	.	.	.	.	.	.	.	.
.	.	.	.	.	32ee/	16ryy	.	.	.	.	.	.	.	.	.	.	.	.	.	.	.
.	.	.	.	.	32cc/JJJ	.	.	.	.	.	.	.	.	.	.	.	.	.	.	.	.
8A\J	.	.	.	.	32e/LLL	16e\	.	.	.	.	.	.	.	.	.	.	.	.	.	.	.
.	.	.	.	.	32cc/	.	.	.	.	.	.	.	.	.	.	.	.	.	.	.	.
.	.	.	.	.	32ee/	16ryy	.	.	.	.	.	.	.	.	.	.	.	.	.	.	.
.	.	.	.	.	32cc/JJJ	.	.	.	.	.	.	.	.	.	.	.	.	.	.	.	.
4A\	.	.	.	.	32a/LLL	16a\	.	.	.	.	.	.	.	.	.	.	.	.	.	.	.
.	.	.	.	.	32cc/	.	.	.	.	.	.	.	.	.	.	.	.	.	.	.	.
.	.	.	.	.	32ee/	16ryy	.	.	.	.	.	.	.	.	.	.	.	.	.	.	.
.	.	.	.	.	32cc/JJJ	.	.	.	.	.	.	.	.	.	.	.	.	.	.	.	.
.	.	.	.	.	32e/LLL	16e\	.	.	.	.	.	.	.	.	.	.	.	.	.	.	.
.	.	.	.	.	32cc/	.	.	.	.	.	.	.	.	.	.	.	.	.	.	.	.
.	.	.	.	.	32ee/	16ryy	.	.	.	.	.	.	.	.	.	.	.	.	.	.	.
.	.	.	.	.	32cc/JJJ	.	.	.	.	.	.	.	.	.	.	.	.	.	.	.	.
*	*	*	*	*	*v	*v	*	*	*	*	*	*	*	*	*	*	*	*	*	*	*
=38	=38	=38	=38	=38	=38	=38	=38	=38	=38	=38	=38	=38	=38	=38	=38	=38	=38	=38	=38	=38
4d\	.	.	1r	.	8ffL 8a 8d/	.	1r	.	.	1r	.	.	1r	.	.	1r	.	.	1ryy	1ryy
.	.	.	.	.	[8ffJ 8a 8d/	.	.	.	.	.	.	.	.	.	.	.	.	.	.	.
8r	.	.	.	.	32ff/LLL]	.	.	.	.	.	.	.	.	.	.	.	.	.	.	.
.	.	.	.	.	32ee/	.	.	.	.	.	.	.	.	.	.	.	.	.	.	.
.	.	.	.	.	32dd/	.	.	.	.	.	.	.	.	.	.	.	.	.	.	.
.	.	.	.	.	32cc/JJJ	.	.	.	.	.	.	.	.	.	.	.	.	.	.	.
8d\	.	.	.	.	32dd/LLL	.	.	.	.	.	.	.	.	.	.	.	.	.	.	.
.	.	.	.	.	32cc/	.	.	.	.	.	.	.	.	.	.	.	.	.	.	.
.	.	.	.	.	32b/	.	.	.	.	.	.	.	.	.	.	.	.	.	.	.
.	.	.	.	.	32a/JJJ	.	.	.	.	.	.	.	.	.	.	.	.	.	.	.
8e\	.	.	.	.	32g#X/LLL	.	.	.	.	.	.	.	.	.	.	.	.	.	.	.
.	.	.	.	.	32e/	.	.	.	.	.	.	.	.	.	.	.	.	.	.	.
!	!	!	!	!	!LO:SIC:v:s=32f/	!	!	!	!	!	!	!	!	!	!	!	!	!	!	!
.	.	.	.	.	32fn/	.	.	.	.	.	.	.	.	.	.	.	.	.	.	.
.	.	.	.	.	32g#/JJJ	.	.	.	.	.	.	.	.	.	.	.	.	.	.	.
8r	.	.	.	.	32a\LLL	.	.	.	.	.	.	.	.	.	.	.	.	.	.	.
.	.	.	.	.	32b\	.	.	.	.	.	.	.	.	.	.	.	.	.	.	.
.	.	.	.	.	32cc\	.	.	.	.	.	.	.	.	.	.	.	.	.	.	.
.	.	.	.	.	32dd\JJJ	.	.	.	.	.	.	.	.	.	.	.	.	.	.	.
8G#X\	.	.	.	.	32ee\LLL	.	.	.	.	.	.	.	.	.	.	.	.	.	.	.
.	.	.	.	.	32ff\	.	.	.	.	.	.	.	.	.	.	.	.	.	.	.
!	!	!	!	!	!LO:SIC:v:s=32gg#\	!	!	!	!	!	!	!	!	!	!	!	!	!	!	!
.	.	.	.	.	32gg\	.	.	.	.	.	.	.	.	.	.	.	.	.	.	.
.	.	.	.	.	32aa\JJJ	.	.	.	.	.	.	.	.	.	.	.	.	.	.	.
8r	.	.	.	.	32bb\LLL	.	.	.	.	.	.	.	.	.	.	.	.	.	.	.
!	!	!	!	!	!LO:SIC:v:s=32gg#\	!	!	!	!	!	!	!	!	!	!	!	!	!	!	!
.	.	.	.	.	32gg\	.	.	.	.	.	.	.	.	.	.	.	.	.	.	.
.	.	.	.	.	32ee\	.	.	.	.	.	.	.	.	.	.	.	.	.	.	.
.	.	.	.	.	32dd\JJJ	.	.	.	.	.	.	.	.	.	.	.	.	.	.	.
!	!	!	!	!	!LO:LB:g=original	!	!	!	!	!	!	!	!	!	!	!LO:LB:g=original	!	!	!	!
=39	=39	=39	=39	=39	=39	=39	=39	=39	=39	=39	=39	=39	=39	=39	=39	=39	=39	=39	=39	=39
8A\	.	.	1r	.	32cc\LLL	.	1r	.	.	1r	.	.	1r	.	.	1r	.	.	1ryy	1ryy
.	.	.	.	.	32a\	.	.	.	.	.	.	.	.	.	.	.	.	.	.	.
.	.	.	.	.	32b\	.	.	.	.	.	.	.	.	.	.	.	.	.	.	.
.	.	.	.	.	32cc\JJJ	.	.	.	.	.	.	.	.	.	.	.	.	.	.	.
8r	.	.	.	.	32dd\LLL	.	.	.	.	.	.	.	.	.	.	.	.	.	.	.
.	.	.	.	.	32ee\	.	.	.	.	.	.	.	.	.	.	.	.	.	.	.
.	.	.	.	.	32ff\	.	.	.	.	.	.	.	.	.	.	.	.	.	.	.
!	!	!	!	!	!LO:SIC:v:s=32gg#\JJJ	!	!	!	!	!	!	!	!	!	!	!	!	!	!	!
.	.	.	.	.	32gg\JJJ	.	.	.	.	.	.	.	.	.	.	.	.	.	.	.
4r	.	.	.	.	16aa\LL	.	.	.	.	.	.	.	.	.	.	.	.	.	.	.
.	.	.	.	.	16bb\	.	.	.	.	.	.	.	.	.	.	.	.	.	.	.
.	.	.	.	.	16ccc\	.	.	.	.	.	.	.	.	.	.	.	.	.	.	.
.	.	.	.	.	16ddd\JJ	.	.	.	.	.	.	.	.	.	.	.	.	.	.	.
4r	.	.	.	.	16eee\LL	.	.	.	.	.	.	.	.	.	.	.	.	.	.	.
.	.	.	.	.	16fff\	.	.	.	.	.	.	.	.	.	.	.	.	.	.	.
.	.	.	.	.	16ggg#X\	.	.	.	.	.	.	.	.	.	.	.	.	.	.	.
.	.	.	.	.	16aaa\JJ	.	.	.	.	.	.	.	.	.	.	.	.	.	.	.
4E\	.	.	.	.	8ee\L	.	.	.	.	.	.	.	.	.	.	.	.	.	.	.
!	!	!	!	!	!LO:SIC:v:s=8bbt\J	!	!	!	!	!	!	!	!	!	!	!	!	!	!	!
!	!	!	!	!	!LO:TX:a:t=t:mod=	!	!	!	!	!	!	!	!	!	!	!	!	!	!	!
.	.	.	.	.	8bb\J	.	.	.	.	.	.	.	.	.	.	.	.	.	.	.
!	!	!	!	!	!	!	!	!	!	!	!	!	!LO:LB:g=original	!	!	!	!	!	!	!
=40	=40	=40	=40	=40	=40	=40	=40	=40	=40	=40	=40	=40	=40	=40	=40	=40	=40	=40	=40	=40
!!LO:TX:a:t= :mod=Tutti
!	!	!	!LO:TX:a:i:t=Tutti:mod=	!LO:DY:t=for&colon; :mod= 	!	!	!	!	!	!	!	!	!	!	!	!	!	!	!	!
8A\L	.	.	2r	f	8aa\L	.	2r	.	.	2r	.	.	2r	.	.	2r	.	.	1ryy	1ryy
8E\J	.	.	.	.	8ee\J	.	.	.	.	.	.	.	.	.	.	.	.	.	.	.
!	!	!	!	!	!LO:TX:a:i:t=Tutti:mod=	!LO:DY:t=for.:mod=%s	!	!	!	!	!	!	!	!	!	!	!	!	!	!
4AA/	.	.	.	.	4a/	f	.	.	.	.	.	.	.	.	.	.	.	.	.	.
!	!	!	!	!LO:DY:t= :mod=%s	!	!	!	!	!	!	!	!	!	!	!	!	!	!	!	!
8r	.	.	16eeLL 16e/	f	16aa\LL	.	8A\	Sa-	Sa-	8e\	Spe-	Spe-	8a\	Vas	Vas	8cc\	Ro-	Ro-	.	.
.	.	.	16ee 16e/	.	16ee\	.	.	.	.	.	.	.	.	.	.	.	.	.	.	.
!LO:TX:a:i:t=Tutti:mod=	!	!LO:DY:t=for&colon; :mod=%s	!	!	!	!	!	!	!	!	!	!	!	!	!	!	!	!	!	!
8A\L	.	f	16ee 16e/	.	16ee\	.	8A\	-lus	-lus	8e\	-cu-	-cu-	8a\	in-	in-	8cc\	-sa	-sa	.	.
.	.	.	16eeJJ 16e/	.	16ee\JJ	.	.	.	.	.	.	.	.	.	.	.	.	.	.	.
*	*	*	*tremolo	*	*	*	*	*	*	*	*	*	*	*	*	*	*	*	*	*
8A\	.	.	16ee 16e/LL	.	16ee\LL	.	8A\	in-	in-	8e\	-lum	-lum	8a\	-si-	-si-	8cc\	my-	my-	.	.
.	.	.	16ee 16e/	.	16aa\	.	.	.	.	.	.	.	.	.	.	.	.	.	.	.
8A\J	.	.	16ee 16e/	.	16bb\	.	8A\	-fir-	-fir-	8e\	Ju-	iu-	16a\	-gne	-gne	16cc\	-sti-	-sti-	.	.
.	.	.	16ee 16e/JJ	.	16ccc\JJ	.	.	.	.	.	.	.	16a\	de-	de-	16cc\	-ca	-ca	.	.
=41	=41	=41	=41	=41	=41	=41	=41	=41	=41	=41	=41	=41	=41	=41	=41	=41	=41	=41	=41	=41
*tremolo	*	*	*	*	*	*	*	*	*	*	*	*	*	*	*	*	*	*	*	*
8G#X\L	.	.	16ee 16e/LL	.	16bb\LL	.	4G#X\	-mo-	-mo-	16e\	-sti-	-sti-	8b\	-vo-	-vo-	8dd\	tur-	tur-	1ryy	1ryy
.	.	.	16ee 16e/	.	16ee\	.	.	.	.	16e\	-ti-	-ti-	.	.	.	.	.	.	.	.
8G#X\	.	.	16ee 16e/	.	16ee\	.	.	.	.	8e\	-ae	-ae	8b\	-ti-	-ti-	16dd\	-ris	-ris	.	.
.	.	.	16ee 16e/	.	16ee\JJ	.	.	.	.	.	.	.	.	.	.	16dd\	da-	Da-	.	.
8G#X\	.	.	16ee 16e/	.	16ee\LL	.	8G#\	-rum	-rum	16e\	Se-	Se-	8b\	-o-	-o-	16dd\	-vi-	-vi-	.	.
.	.	.	16ee 16e/	.	16bb\	.	.	.	.	16e\	-des	-des	.	.	.	16dd\	-di-	-di-	.	.
8G#X\J	.	.	16ee 16e/	.	16ccc\	.	8G#\	Re-	Re-	16e\	Sa-	sa-	16b\	-nis	-nis	8dd\	-ca	-ca	.	.
.	.	.	16ee 16e/JJ	.	16ddd\JJ	.	.	.	.	16e\	-pi-	-pi-	16b\	o-	o-	.	.	.	.	.
*Xtremolo	*	*	*	*	*	*	*	*	*	*	*	*	*	*	*	*	*	*	*	*
!	!	!	!	!	!LO:LB:g=original	!	!LO:LB:g=original	!	!	!	!	!	!	!	!	!	!	!	!	!
8A\L	.	.	16ee 16e/LL	.	16ccc\LL	.	8A\	-fu-	-fu-	16e\	-en-	-en-	8a\	-ra	-ra	8cc\	tur-	tur-	.	.
.	.	.	16ee 16e/	.	16ee\	.	.	.	.	16e\	-ti-	-ti-	.	.	.	.	.	.	.	.
8A\	.	.	16ee 16e/	.	16ee\	.	16A\	-gi-	-gi-	8e\	-ae	-ae	8a\	pro	pro	16cc\	-ris	-ris	.	.
.	.	.	16ee 16e/	.	16ee\JJ	.	16A\	-um	-um	.	.	.	.	.	.	16cc\	E-	e-	.	.
!	!	!	!	!	!	!	!	!	!	!LO:LB:g=original	!	!	!	!	!	!	!	!	!	!
8F\	.	.	16ee 16e/	.	16ee\LL	.	8F\	pec-	pec-	8e\	Cau-	Cau-	8a\	no-	no-	16cc\	-bur-	-bur-	.	.
.	.	.	16ee 16e/	.	32ccc\L	.	.	.	.	.	.	.	.	.	.	16cc\	-ne-	-ne-	.	.
.	.	.	.	.	32bb\JJJ	.	.	.	.	.	.	.	.	.	.	.	.	.	.	.
.	.	.	.	.	8qddd/	.	.	.	.	.	.	.	.	.	.	.	.	.	.	.
8F\J	.	.	16ee 16e/	.	16ccc\LL	.	8F\	-ca-	-ca-	8e\	-sa	-sa	8a\	-bis	-bis	8cc\	-a	-a	.	.
.	.	.	16ee 16e/JJ	.	32bb\L	.	.	.	.	.	.	.	.	.	.	.	.	.	.	.
.	.	.	.	.	32aa\JJJ	.	.	.	.	.	.	.	.	.	.	.	.	.	.	.
!LO:LB:g=original	!	!	!	!	!	!	!	!	!	!	!	!	!	!	!	!LO:LB:g=original	!	!	!	!
=42	=42	=42	=42	=42	=42	=42	=42	=42	=42	=42	=42	=42	=42	=42	=42	=42	=42	=42	=42	=42
8E\L	.	.	16ee 16e/LL	.	16gg#X\LL	.	8E\L	-to-	-to-	8e\	no-	no-	8b\	do-	Do-	4dd\	o-	o-	1ryy	1ryy
.	.	.	16ee 16e/	.	16ee\	.	.	.	.	.	.	.	.	.	.	.	.	.	.	.
8G#X\J	.	.	16ee 16e/	.	16ee\	.	8G#X\J	.	.	16e\	-strae	-strae	8b\	-mus	-mus	.	.	.	.	.
.	.	.	16ee 16e/	.	16ee\JJ	.	.	.	.	16e\	lae-	lae-	.	.	.	.	.	.	.	.
4G#\	.	.	16ee 16e/	.	16ee\LL	.	4G#\	-rum	-rum	16e\	-ti-	-ti-	16b\	Au-	au-	8dd\	-ra	-ra	.	.
.	.	.	16ee 16e/	.	16gg#\	.	.	.	.	16e\	-ti-	-ti-	16b\	-re-	-re-	.	.	.	.	.
.	.	.	16ee 16e/	.	16aa\	.	.	.	.	8e\	-ae	-ae	8b\	-a	-a	8dd\	pro	pro	.	.
.	.	.	16ee 16e/JJ	.	16bb\JJ	.	.	.	.	.	.	.	.	.	.	.	.	.	.	.
8r	.	.	16ee 16e/LL	.	16aa\LL	.	8r	.	.	8e\	o-	o-	8a\	foe-	Foe-	4cc\	no-	no-	.	.
.	.	.	16ee 16e/	.	16ee\	.	.	.	.	.	.	.	.	.	.	.	.	.	.	.
8A\L	.	.	16ee 16e/	.	16ee\	.	8A\	o-	o-	16e\	-ra	-ra	16a\	-de-	-de-	.	.	.	.	.
.	.	.	16ee 16e/	.	16ee\JJ	.	.	.	.	16e\	pro	pro	16a\	-ris	-ris	.	.	.	.	.
8A\	.	.	16ee 16e/	.	16ee\LL	.	8A\	-ra	-ra	8e\	no-	no-	8a\	Ar-	ar-	4cc\	-bis	-bis	.	.
.	.	.	16ee 16e/	.	16aa\	.	.	.	.	.	.	.	.	.	.	.	.	.	.	.
8A\J	.	.	16ee 16e/	.	16bb\	.	8A\	pro	pro	8e\	-bis	-bis	8a\	-ca	-ca	.	.	.	.	.
.	.	.	16ee 16e/JJ	.	16ccc\JJ	.	.	.	.	.	.	.	.	.	.	.	.	.	.	.
!	!	!	!LO:LB:g=original	!	!	!	!	!	!	!	!	!	!	!	!	!	!	!	!	!
=43	=43	=43	=43	=43	=43	=43	=43	=43	=43	=43	=43	=43	=43	=43	=43	=43	=43	=43	=43	=43
*tremolo	*	*	*	*	*	*	*	*	*	*	*	*	*	*	*	*	*	*	*	*
!	!	!	!	!	!	!	!	!	!	!	!	!	!LO:LB:g=original	!	!	!	!	!	!	!
8G#X\L	.	.	16ee 16e/LL	.	16bb\LL	.	4G#X\	no-	no-	8e\	Ja-	Ia-	8b\	o-	o-	8dd\	Con-	Con-	1ryy	1ryy
.	.	.	16ee 16e/	.	16ee\	.	.	.	.	.	.	.	.	.	.	.	.	.	.	.
8G#X\	.	.	16ee 16e/	.	16ee\	.	.	.	.	16e\	-nu-	-nu-	16b\	-ra	-ra	8dd\	-ſo-	-ſo-	.	.
.	.	.	16ee 16e/	.	16ee\JJ	.	.	.	.	16e\	-a	-a	16b\	pro	pro	.	.	.	.	.
!	!	!	!	!	!	!	!	!	!	!	!	!	!LO:MO:mod=4b\	!	!	!	!	!	!	!
8G#X\	.	.	16ee 16e/	.	16ee\LL	.	8G#\	-bis	-bis	8e\	Cae-	cae-	8b\	no-	no-	8dd\	-la-	-la-	.	.
.	.	.	16ee 16e/	.	16bb\	.	.	.	.	.	.	.	.	.	.	.	.	.	.	.
!	!	!	!	!	!	!	!	!	!	!	!	!	!LO:MO:mod=!null:null	!	!	!	!	!	!	!
8G#X\J	.	.	16ee 16e/	.	16ccc\	.	8G#\	Re-	Re-	16e\	-li	-li	8b\	.	.	8dd\	-trix	-trix	.	.
.	.	.	16ee 16e/JJ	.	16ddd\JJ	.	.	.	.	16e\	o-	o-	.	.	.	.	.	.	.	.
8A\L	.	.	16ee 16e/LL	.	16ccc\LL	.	4A\	-gi-	-gi-	8e\	-ra	-ra	4a\	-bis	-bis	4cc\	af-	af-	.	.
.	.	.	16ee 16e/	.	16ee\	.	.	.	.	.	.	.	.	.	.	.	.	.	.	.
8A\	.	.	16ee 16e/	.	16ee\	.	.	.	.	8e\	pro	pro	.	.	.	.	.	.	.	.
.	.	.	16ee 16e/	.	16ee\JJ	.	.	.	.	.	.	.	.	.	.	.	.	.	.	.
8A\	.	.	16ee 16e/	.	16eee\LL	.	4A\	-na	-na	8c\	no-	no-	4a\	Au-	Au-	4ee\	-flic-	-flic-	.	.
.	.	.	16ee 16e/	.	16ee\	.	.	.	.	.	.	.	.	.	.	.	.	.	.	.
8A\J	.	.	16ee 16e/	.	16ccc\	.	.	.	.	8c\	-bis	-bis	.	.	.	.	.	.	.	.
.	.	.	16ee 16e/JJ	.	16ee\JJ	.	.	.	.	.	.	.	.	.	.	.	.	.	.	.
!	!	!	!	!	!LO:LB:g=original	!	!LO:LB:g=original	!	!	!LO:LB:g=original	!	!	!	!	!	!	!	!	!	!
=44	=44	=44	=44	=44	=44	=44	=44	=44	=44	=44	=44	=44	=44	=44	=44	=44	=44	=44	=44	=44
8G#X\L	.	.	16ee 16e/LL	.	16ddd\LL	.	8G#X\	Vir-	Vir-	16d\	Stel-	Stel-	8b\	-xi-	-xi-	8ee\	-to-	-to-	1ryy	1ryy
.	.	.	16ee 16e/	.	16ee\	.	.	.	.	16d\	-la	-la	.	.	.	.	.	.	.	.
8G#X\	.	.	16ee 16e/	.	16ee\	.	8G#\	-gi-	-gi-	16d\	ma-	ma-	8b\	-li-	-li-	16ee\	-rum	-rum	.	.
.	.	.	16ee 16e/	.	16ee\JJ	.	.	.	.	16d\	-tu-	-tu-	.	.	.	16ee\	o-	o-	.	.
8G#X\	.	.	16ee 16e/	.	16ddd\LL	.	8G#\	-num	-num	8d\	-ti-	-ti-	8b\	-um	-um	8ee\	-ra	-ra	.	.
.	.	.	16ee 16e/	.	16ee\	.	.	.	.	.	.	.	.	.	.	.	.	.	.	.
8G#X\J	.	.	16ee 16e/	.	16bb\	.	8G#\	Re-	Re-	16d\	-na	-na	8b\	Chri-	Chri-	8ee\	pro	pro	.	.
.	.	.	16ee 16e/JJ	.	16ee\JJ	.	.	.	.	16d\	o-	o-	.	.	.	.	.	.	.	.
8A\L	.	.	16ee 16e/LL	.	16ccc\LL	.	4A\	-gi-	-gi-	8c\	-ra	-ra	8a\	-sti-	-sti-	8ee\	no-	no-	.	.
.	.	.	16ee 16e/	.	16ee\	.	.	.	.	.	.	.	.	.	.	.	.	.	.	.
8A\	.	.	16ee 16e/	.	16ee\	.	.	.	.	8c\	pro	pro	8a\	-a-	-a-	8ee\	-bis	-bis	.	.
.	.	.	16ee 16e/	.	16ee\JJ	.	.	.	.	.	.	.	.	.	.	.	.	.	.	.
8A\	.	.	16ee 16e/	.	16eee\LL	.	8A\	-na	-na	8c\	no-	no-	8a\	-no-	-no-	4ee\	Re-	Re-	.	.
.	.	.	16ee 16e/	.	16ee\	.	.	.	.	.	.	.	.	.	.	.	.	.	.	.
8A\J	.	.	16ee 16e/	.	16ccc\	.	8A\	San-	San-	16c\	-bis	-bis	16a\	-rum	-rum	.	.	.	.	.
.	.	.	16ee 16e/JJ	.	16ee\JJ	.	.	.	.	16c\	Re-	Re-	16a\	o-	o-	.	.	.	.	.
=45	=45	=45	=45	=45	=45	=45	=45	=45	=45	=45	=45	=45	=45	=45	=45	=45	=45	=45	=45	=45
8G#X\L	.	.	16ee 16e/LL	.	16ddd\LL	.	8G#X\	-cto-	-cto-	8d\	-gi-	-gi-	8b\	-ra	-ra	8ee\	-gi-	-gi-	1ryy	1ryy
.	.	.	16ee 16e/	.	16ee\	.	.	.	.	.	.	.	.	.	.	.	.	.	.	.
8G#X\	.	.	16ee 16e/	.	16ee\	.	8G#\	-rum	-rum	8d\	-na	-na	8b\	pro	pro	8ee\	-na	-na	.	.
.	.	.	16ee 16e/	.	16ee\JJ	.	.	.	.	.	.	.	.	.	.	.	.	.	.	.
8G#X\	.	.	16ee 16e/	.	16ddd\LL	.	8G#\	om-	om-	8d\	Mar-	Mar-	8b\	no-	no-	8ee\	An-	An-	.	.
.	.	.	16ee 16e/	.	16ee\	.	.	.	.	.	.	.	.	.	.	.	.	.	.	.
8G#X\J	.	.	16ee 16e/	.	16bb\	.	8G#\	-ni-	-ni-	8d\	-tÿ-	-ty-	16b\	-bis	-bis	8ee\	-ge-	-ge-	.	.
.	.	.	16ee 16e/JJ	.	16ee\JJ	.	.	.	.	.	.	.	16b\	Re-	Re-	.	.	.	.	.
*Xtremolo	*	*	*	*	*	*	*	*	*	*	*	*	*	*	*	*	*	*	*	*
!	!	!	!	!	!	!	!	!	!	!	!	!	!	!	!	!LO:LB:g=original	!	!	!	!
8A\L	.	.	16ee 16e/LL	.	16ccc\LL	.	4A\	-um	-um	4c\	-rum	-rum	16a\	-gi-	-gi-	4ee\	-lo-	-lo-	.	.
.	.	.	16ee 16e/	.	16ee\	.	.	.	.	.	.	.	16a\	-na	-na	.	.	.	.	.
8A\	.	.	16ee 16e/	.	16ee\	.	.	.	.	.	.	.	16a\	Pro-	Pro-	.	.	.	.	.
.	.	.	16ee 16e/	.	16ee\JJ	.	.	.	.	.	.	.	16a\	-phe-	-phe-	.	.	.	.	.
!	!	!	!	!	!	!	!	!	!	!	!	!	!LO:LB:g=original	!	!	!	!	!	!	!
8c\	6	.	16ee 16e/	.	16aa\LL	.	4c\	o-	o-	4c\	Re-	Re-	8a\	-ta-	-ta-	8ee\	-rum	-rum	.	.
.	.	.	16ee 16e/	.	16ee\	.	.	.	.	.	.	.	.	.	.	.	.	.	.	.
8c\J	.	.	16ee 16e/	.	16ee\	.	.	.	.	.	.	.	16a\	-rum	-rum	8ee\	Re-	Re-	.	.
.	.	.	16ee 16e/JJ	.	16ee\JJ	.	.	.	.	.	.	.	16a\	Re-	Re-	.	.	.	.	.
*	*	*	*Xtremolo	*	*	*	*	*	*	*	*	*	*	*	*	*	*	*	*	*
=46	=46	=46	=46	=46	=46	=46	=46	=46	=46	=46	=46	=46	=46	=46	=46	=46	=46	=46	=46	=46
!	!	!	!	!	!	!	!LO:MO:mod=*null:null	!	!	!	!	!	!	!	!	!	!	!	!	!
*	*	*	*	*	*	*	*2\right	*	*	*	*	*	*	*	*	*	*	*	*	*
4B\	5	.	16ff\LL	.	16ff\LL	.	2B\	.	.	8d\	-gi-	-gi-	8b\	-gi-	-gi-	8ff\	-gi-	-gi-	1ryy	1ryy
.	.	.	16dd\J	.	16dd\J	.	.	.	.	.	.	.	.	.	.	.	.	.	.	.
!	!	!	!LO:SIC:v:s=8ddT\J	!	!LO:SIC:v:s=8ddT\J	!	!	!	!	!	!	!	!	!	!	!	!	!	!	!
!	!	!	!LO:TX:a:t=t:mod=	!	!LO:TX:a:t=t:mod=	!	!	!	!	!	!	!	!	!	!	!	!	!	!	!
.	.	.	8dd\J	.	8dd\J	.	.	.	.	8d\	-na	-na	16b\	-na	-na	8f/	-na	-na	.	.
.	.	.	.	.	.	.	.	.	.	.	.	.	16b\	A-	A-	.	.	.	.	.
4B\	6	.	16gg\LL	.	16gg\LL	.	.	.	.	8B\	Con-	Con-	8g\	-po-	-po-	8dd\	Pa-	Pa-	.	.
.	.	.	16dd\	.	16dd\	.	.	.	.	.	.	.	.	.	.	.	.	.	.	.
.	.	.	16dd\	.	16dd\	.	.	.	.	8B\	-feſ-	-feſ-	8g\	-sto-	-sto-	16dd\	-tri-	-tri-	.	.
.	.	.	16dd\JJ	.	16dd\JJ	.	.	.	.	.	.	.	.	.	.	16dd\	-ar-	-ar-	.	.
!	!	!	!	!	!	!	!	!	!	!LO:LB:g=original	!	!	!	!	!	!	!	!	!	!
4A\	5	.	16ee\LL	.	16ee\LL	.	2A\	.	.	8c\	-so-	-so-	8a\	-lo-	-lo-	8ee\	-cha-	-cha-	.	.
.	.	.	16cc\J	.	16cc\J	.	.	.	.	.	.	.	.	.	.	.	.	.	.	.
!	!	!	!LO:SIC:v:s=8ccT\J	!	!LO:SIC:v:s=8ccT\J	!	!	!	!	!	!	!	!	!	!	!	!	!	!	!
!	!	!	!LO:TX:a:t=t:mod=	!	!LO:TX:a:t=t:mod=	!	!	!	!	!	!	!	!	!	!	!	!	!	!	!
.	.	.	8cc\J	.	8cc\J	.	.	.	.	8c\	-rum	-rum	8a\	-rum	-rum	8e/	-rum	-rum	.	.
4A\	6	.	16ff\LL	.	16ff\LL	.	.	.	.	8A\	o-	o-	4f\	o-	o-	4cc\	o-	o-	.	.
.	.	.	16cc\	.	16cc\	.	.	.	.	.	.	.	.	.	.	.	.	.	.	.
.	.	.	16cc\	.	16cc\	.	.	.	.	16A\	-ra	-ra	.	.	.	.	.	.	.	.
.	.	.	16cc\JJ	.	16cc\JJ	.	.	.	.	16A\	pro	pro	.	.	.	.	.	.	.	.
!	!	!	!LO:LB:g=original	!	!LO:LB:g=original	!	!	!	!	!	!	!	!	!	!	!	!	!	!	!
=47	=47	=47	=47	=47	=47	=47	=47	=47	=47	=47	=47	=47	=47	=47	=47	=47	=47	=47	=47	=47
4G#X\	5	.	16dd\LL	.	16dd\LL	.	4G#X\	-ra	-ra	4B\	no-	no-	8g#X\	-ra	-ra	8dd\	-ra	-ra	1ryy	1ryy
.	.	.	16b\J	.	16b\J	.	.	.	.	.	.	.	.	.	.	.	.	.	.	.
!	!	!	!	!	!LO:SIC:v:s=8bt\J	!	!	!	!	!	!	!	!	!	!	!	!	!	!	!
!	!	!	!	!	!LO:TX:a:t=t:mod=	!	!	!	!	!	!	!	!	!	!	!	!	!	!	!
.	.	.	8b\J	.	8b\J	.	.	.	.	.	.	.	8g#\	pro	pro	8d/	pro	pro	.	.
4G#\	6	.	16ee\LL	.	16ee\LL	.	4G#\	pro	pro	8G#X\L	.	.	4e\	no-	no-	4b\	no-	no-	.	.
.	.	.	16b\	.	16b\	.	.	.	.	.	.	.	.	.	.	.	.	.	.	.
.	.	.	16b\	.	16b\	.	.	.	.	8B\J	.	.	.	.	.	.	.	.	.	.
.	.	.	16b\JJ	.	16b\JJ	.	.	.	.	.	.	.	.	.	.	.	.	.	.	.
!LO:TX:t=P:problem=mixed beam:mod=	!	!	!	!	!	!	!	!	!	!	!	!	!	!	!	!	!	!	!	!
!	!	!	!	!	!	!	!LO:LB:g=original	!	!	!	!	!	!	!	!	!	!	!	!	!
8A\L	.	.	16cc\LL	.	16cc\LL	.	8A\L	no-	no-	8A\	-bis	-bis	8e\	-bis	-bis	8cc\	-bis	-bis	.	.
.	.	.	16a\	.	16a\	.	.	.	.	.	.	.	.	.	.	.	.	.	.	.
8G#\	.	.	16dd\	.	16dd\	.	8G#\J	.	.	8r	.	.	8r	.	.	8r	.	.	.	.
.	.	.	16b\JJ	.	16b\JJ	.	.	.	.	.	.	.	.	.	.	.	.	.	.	.
!	!	!	!	!	!	!	!LO:TX:t=P:problem=mixed beam:mod=	!	!	!	!	!	!	!	!	!	!	!	!	!
8A\	.	.	16ee\LL	.	16ee\LL	.	8A\L	.	.	8r	.	.	8r	.	.	8r	.	.	.	.
.	.	.	16cc\	.	16cc\	.	.	.	.	.	.	.	.	.	.	.	.	.	.	.
8C/J	.	.	16b\	.	16b\	.	8C/J	.	.	8c\	o-	o-	8e\	o-	o-	8a\	o-	o-	.	.
.	.	.	16a\JJ	.	16a\JJ	.	.	.	.	.	.	.	.	.	.	.	.	.	.	.
!LO:LB:g=original	!	!	!	!	!	!	!	!	!	!	!	!	!	!	!	!	!	!	!	!
=48	=48	=48	=48	=48	=48	=48	=48	=48	=48	=48	=48	=48	=48	=48	=48	=48	=48	=48	=48	=48
8E\	#	.	16g#X/LL	.	16g#X/LL	.	8E\	-bis	-bis	8B\	-ra	-ra	8e\	-ra	-ra	8g#X/	-ra	-ra	1ryy	1ryy
.	.	.	16e/	.	16e/	.	.	.	.	.	.	.	.	.	.	.	.	.	.	.
8r	.	.	16a/	.	16a/	.	8r	.	.	8r	.	.	8r	.	.	8r	.	.	.	.
.	.	.	16f#X/JJ	.	16f#X/JJ	.	.	.	.	.	.	.	.	.	.	.	.	.	.	.
8E\L	#_	.	16b/LL	.	16b/LL	.	8E\L	o-	o-	8r	.	.	8r	.	.	8r	.	.	.	.
.	.	.	16g#/	.	16g#/	.	.	.	.	.	.	.	.	.	.	.	.	.	.	.
*	*	*	*	*	*	*	*	*	*	*	*ij	*ij	*	*	*	*	*ij	*ij	*	*
8D\J	x	.	16f#/	.	16f#/	.	8D\J	.	.	8B\	o-	o-	8e\	o-	o-	8g#/	o-	o-	.	.
.	.	.	16e/JJ	.	16e/JJ	.	.	.	.	.	.	.	.	.	.	.	.	.	.	.
!LO:SIC:v:s=8C\L	!	!	!	!	!	!	!	!	!	!	!	!	!LO:LB:g=original	!	!	!	!	!	!	!
8Cn\L	.	.	16cc\LL	.	16cc\LL	.	8AA/	-ra	-ra	8c\	-ra	-ra	8e\	-ra	-ra	8a/	-ra	-ra	.	.
*	*	*	*	*	*	*	*	*	*	*	*Xij	*Xij	*	*	*	*	*Xij	*Xij	*	*
.	.	.	16a\	.	16a\	.	.	.	.	.	.	.	.	.	.	.	.	.	.	.
8G#X\	.	.	16dd\	.	16dd\	.	8G#X\	pro	pro	8r	.	.	8r	.	.	8r	.	.	.	.
.	.	.	16b\JJ	.	16b\JJ	.	.	.	.	.	.	.	.	.	.	.	.	.	.	.
!	!	!	!	!	!	!	!LO:TX:t=P:problem=mixed beam:mod=	!	!	!	!	!	!	!	!	!	!	!	!	!
8A\	.	.	16ee\LL	.	16ee\LL	.	8A\L	no-	no-	8r	.	.	8r	.	.	8r	.	.	.	.
.	.	.	16cc\	.	16cc\	.	.	.	.	.	.	.	.	.	.	.	.	.	.	.
*	*	*	*	*	*	*	*	*	*	*	*ij	*ij	*	*	*	*	*	*	*	*
8AA/J	.	.	16b\	.	16b\	.	8AA/J	.	.	8c\	o-	o-	8a\	o-	o-	8ee\	o-	o-	.	.
.	.	.	16a\JJ	.	16a\JJ	.	.	.	.	.	.	.	.	.	.	.	.	.	.	.
!	!	!	!	!	!	!	!	!	!	!	!	!	!	!	!	!LO:LB:g=original	!	!	!	!
=49	=49	=49	=49	=49	=49	=49	=49	=49	=49	=49	=49	=49	=49	=49	=49	=49	=49	=49	=49	=49
4D\	.	.	16ff\LL	.	16ff\LL	.	4D\	-bis	-bis	4d\	-ra	-ra	4a\	-ra	-ra	4ff\	-ra	-ra	1ryy	1ryy
.	.	.	16gg\	.	16gg\	.	.	.	.	.	.	.	.	.	.	.	.	.	.	.
.	.	.	16aa\	.	16aa\	.	.	.	.	.	.	.	.	.	.	.	.	.	.	.
.	.	.	16ff\JJ	.	16ff\JJ	.	.	.	.	.	.	.	.	.	.	.	.	.	.	.
4B\	.	.	16dd\LL	.	16dd\LL	.	4B\	o-	o-	4B\	o-	o-	4f\	pro	pro	4dd\	pro	pro	.	.
.	.	.	16ee\	.	16ee\	.	.	.	.	.	.	.	.	.	.	.	.	.	.	.
.	.	.	16ff\	.	16ff\	.	.	.	.	.	.	.	.	.	.	.	.	.	.	.
.	.	.	16dd\JJ	.	16dd\JJ	.	.	.	.	.	.	.	.	.	.	.	.	.	.	.
!	!	!	!	!	!LO:LB:g=original	!	!	!	!	!	!	!	!	!	!	!	!	!	!	!
4G#X\	.	.	16b\LL	.	16b\LL	.	4G#X\	.	.	4d\	-ra	-ra	4g#X\	no-	no-	4b\	no-	no-	.	.
*	*	*	*	*	*	*	*	*	*	*	*Xij	*Xij	*	*	*	*	*	*	*	*
.	.	.	16cc\	.	16cc\	.	.	.	.	.	.	.	.	.	.	.	.	.	.	.
.	.	.	16dd\	.	16dd\	.	.	.	.	.	.	.	.	.	.	.	.	.	.	.
.	.	.	16b\JJ	.	16b\JJ	.	.	.	.	.	.	.	.	.	.	.	.	.	.	.
!	!	!	!LO:TX:t=P:problem=mixed beam:mod=	!	!LO:TX:t=P:problem=mixed beam:mod=	!	!	!	!	!	!	!	!	!	!	!	!	!	!	!
8E\L	.	.	16g#X/LL	.	16g#X/LL	.	8E\	-ra	-ra	4B\	pro	pro	8g#\	-bis	-bis	4dd\	.	.	.	.
.	.	.	16ff\	.	16ff\	.	.	.	.	.	.	.	.	.	.	.	.	.	.	.
8G#\J	.	.	16ee\	.	16ee\	.	8G#\	pro	pro	.	.	.	8e\	o-	o-	.	.	.	.	.
.	.	.	16dd\JJ	.	16dd\JJ	.	.	.	.	.	.	.	.	.	.	.	.	.	.	.
!	!	!	!LO:LB:g=original	!	!	!	!	!	!	!	!	!	!	!	!	!	!	!	!	!
=50	=50	=50	=50	=50	=50	=50	=50	=50	=50	=50	=50	=50	=50	=50	=50	=50	=50	=50	=50	=50
.	.	.	8qqdd/	.	8qqdd/	.	.	.	.	.	.	.	.	.	.	8qqdd/	.	.	.	.
8A\L	.	.	8cc\L	.	8cc\L	.	8A\L	no-	no-	8A\L	no-	no-	8e\	-ra	-ra	8cc\L	.	.	1ryy	1ryy
8D\	.	.	16b\L	.	16b\L	.	8D\J	.	.	8f\J	.	.	8a\	pro	pro	16b\L	.	.	.	.
.	.	.	16a\JJ	.	16a\JJ	.	.	.	.	.	.	.	.	.	.	16a\JJ	.	.	.	.
!	!	!	!	!	!LO:SIC:v:s=4bt\	!	!	!	!	!	!	!	!	!	!	!	!	!	!	!
!	!	!	!	!	!LO:TX:a:t=t:mod=	!	!	!	!	!	!	!	!	!	!	!LO:TX:a:t=t	!	!	!	!
8E\	.	.	8a\L	.	4b\	.	4E\	.	.	4e\	.	.	8a\L	no-	no-	4b\	.	.	.	.
8E\J	.	.	8g#X\J	.	.	.	.	.	.	.	.	.	8g#X\J	.	.	.	.	.	.	.
!LO:TX:a:i:t=Solo	!	!	!	!	!LO:TX:a:i:t=Solo	!	!	!	!	!	!	!	!	!	!	!	!	!	!	!
4AA/	.	.	8a\	.	16a\LL	.	4AA/	-bis	-bis.	4e\	-bis.	-bis.	4a\	-bis.	-bis.	4a\	-bis.	-bis.	.	.
.	.	.	.	.	16aa\	.	.	.	.	.	.	.	.	.	.	.	.	.	.	.
.	.	.	8r	.	16aa\	.	.	.	.	.	.	.	.	.	.	.	.	.	.	.
.	.	.	.	.	16aa\JJ	.	.	.	.	.	.	.	.	.	.	.	.	.	.	.
!	!	!LO:DY:t=piano :mod=%s	!	!	!	!	!	!	!	!	!	!	!	!	!	!	!	!	!	!
4Gn\	#4r 2	p	4r	.	16ccc#X\LL	.	4r	.	.	4r	.	.	4r	.	.	4r	.	.	.	.
.	.	.	.	.	16aa\	.	.	.	.	.	.	.	.	.	.	.	.	.	.	.
.	.	.	.	.	16aa\	.	.	.	.	.	.	.	.	.	.	.	.	.	.	.
.	.	.	.	.	16aa\JJ	.	.	.	.	.	.	.	.	.	.	.	.	.	.	.
!	!	!	!	!	!	!	!	!	!	!LO:LB:g=original	!	!	!	!	!	!	!	!	!	!
=51	=51	=51	=51	=51	=51	=51	=51	=51	=51	=51	=51	=51	=51	=51	=51	=51	=51	=51	=51	=51
4F\	6	.	1r	.	16ddd\LL	.	1r	.	.	1r	.	.	1r	.	.	1r	.	.	1ryy	1ryy
.	.	.	.	.	16aa\	.	.	.	.	.	.	.	.	.	.	.	.	.	.	.
.	.	.	.	.	16aa\	.	.	.	.	.	.	.	.	.	.	.	.	.	.	.
.	.	.	.	.	16aa\JJ	.	.	.	.	.	.	.	.	.	.	.	.	.	.	.
4C#X/	6 5	.	.	.	16eee\LL	.	.	.	.	.	.	.	.	.	.	.	.	.	.	.
.	.	.	.	.	16aa\	.	.	.	.	.	.	.	.	.	.	.	.	.	.	.
.	.	.	.	.	16aa\	.	.	.	.	.	.	.	.	.	.	.	.	.	.	.
.	.	.	.	.	16aa\JJ	.	.	.	.	.	.	.	.	.	.	.	.	.	.	.
4D\	.	.	.	.	16fff\LL	.	.	.	.	.	.	.	.	.	.	.	.	.	.	.
.	.	.	.	.	16aa\	.	.	.	.	.	.	.	.	.	.	.	.	.	.	.
.	.	.	.	.	16aa\	.	.	.	.	.	.	.	.	.	.	.	.	.	.	.
.	.	.	.	.	16aa\JJ	.	.	.	.	.	.	.	.	.	.	.	.	.	.	.
4G\	#4r 2	.	.	.	16ccc#X\LL	.	.	.	.	.	.	.	.	.	.	.	.	.	.	.
.	.	.	.	.	16aa\	.	.	.	.	.	.	.	.	.	.	.	.	.	.	.
.	.	.	.	.	16aa\	.	.	.	.	.	.	.	.	.	.	.	.	.	.	.
.	.	.	.	.	16aa\JJ	.	.	.	.	.	.	.	.	.	.	.	.	.	.	.
!	!	!	!	!	!LO:LB:g=original	!	!	!	!	!	!	!	!	!	!	!	!	!	!	!
=52	=52	=52	=52	=52	=52	=52	=52	=52	=52	=52	=52	=52	=52	=52	=52	=52	=52	=52	=52	=52
4F\	6	.	1r	.	16ddd\LL	.	1r	.	.	1r	.	.	1r	.	.	1r	.	.	1ryy	1ryy
.	.	.	.	.	16aa\	.	.	.	.	.	.	.	.	.	.	.	.	.	.	.
.	.	.	.	.	16aa\	.	.	.	.	.	.	.	.	.	.	.	.	.	.	.
.	.	.	.	.	16aa\JJ	.	.	.	.	.	.	.	.	.	.	.	.	.	.	.
4C#X/	6 5	.	.	.	16eee\LL	.	.	.	.	.	.	.	.	.	.	.	.	.	.	.
.	.	.	.	.	16aa\	.	.	.	.	.	.	.	.	.	.	.	.	.	.	.
.	.	.	.	.	16aa\	.	.	.	.	.	.	.	.	.	.	.	.	.	.	.
.	.	.	.	.	16aa\JJ	.	.	.	.	.	.	.	.	.	.	.	.	.	.	.
4D\	.	.	.	.	16fff\LL	.	.	.	.	.	.	.	.	.	.	.	.	.	.	.
.	.	.	.	.	16aa\	.	.	.	.	.	.	.	.	.	.	.	.	.	.	.
.	.	.	.	.	16aa\	.	.	.	.	.	.	.	.	.	.	.	.	.	.	.
.	.	.	.	.	16aa\JJ	.	.	.	.	.	.	.	.	.	.	.	.	.	.	.
!LO:SIC:v:s=4F\	!	!	!	!	!LO:TX:t=P:problem=mixed beam:mod=	!	!	!	!	!	!	!	!	!	!	!	!	!	!	!
4Fn\	4 2	.	.	.	16g\LL	.	.	.	.	.	.	.	.	.	.	.	.	.	.	.
.	.	.	.	.	16gg\	.	.	.	.	.	.	.	.	.	.	.	.	.	.	.
.	.	.	.	.	16gg\	.	.	.	.	.	.	.	.	.	.	.	.	.	.	.
.	.	.	.	.	16gg\JJ	.	.	.	.	.	.	.	.	.	.	.	.	.	.	.
!LO:LB:g=original	!	!	!	!	!	!	!	!	!	!	!	!	!	!	!	!	!	!	!	!
=53	=53	=53	=53	=53	=53	=53	=53	=53	=53	=53	=53	=53	=53	=53	=53	=53	=53	=53	=53	=53
!	!	!	!	!	!LO:TX:t=P:problem=mixed beam:mod=	!	!	!	!	!	!	!	!	!	!	!	!	!	!	!
2F\	4 2	.	1r	.	16g\LL	.	1r	.	.	1r	.	.	1r	.	.	1r	.	.	1ryy	1ryy
.	.	.	.	.	16gg\	.	.	.	.	.	.	.	.	.	.	.	.	.	.	.
.	.	.	.	.	16gg\	.	.	.	.	.	.	.	.	.	.	.	.	.	.	.
.	.	.	.	.	16gg\JJ	.	.	.	.	.	.	.	.	.	.	.	.	.	.	.
.	.	.	.	.	16bb\LL	.	.	.	.	.	.	.	.	.	.	.	.	.	.	.
.	.	.	.	.	16gg\	.	.	.	.	.	.	.	.	.	.	.	.	.	.	.
.	.	.	.	.	16gg\	.	.	.	.	.	.	.	.	.	.	.	.	.	.	.
.	.	.	.	.	16gg\JJ	.	.	.	.	.	.	.	.	.	.	.	.	.	.	.
4E\	6n	.	.	.	16ccc\LL	.	.	.	.	.	.	.	.	.	.	.	.	.	.	.
.	.	.	.	.	16gg\	.	.	.	.	.	.	.	.	.	.	.	.	.	.	.
.	.	.	.	.	16gg\	.	.	.	.	.	.	.	.	.	.	.	.	.	.	.
.	.	.	.	.	16gg\JJ	.	.	.	.	.	.	.	.	.	.	.	.	.	.	.
4BB\	6 5	.	.	.	16ddd\LL	.	.	.	.	.	.	.	.	.	.	.	.	.	.	.
.	.	.	.	.	16gg\	.	.	.	.	.	.	.	.	.	.	.	.	.	.	.
.	.	.	.	.	16gg\	.	.	.	.	.	.	.	.	.	.	.	.	.	.	.
.	.	.	.	.	16gg\JJ	.	.	.	.	.	.	.	.	.	.	.	.	.	.	.
=54	=54	=54	=54	=54	=54	=54	=54	=54	=54	=54	=54	=54	=54	=54	=54	=54	=54	=54	=54	=54
4C/	.	.	1r	.	16eee\LL	.	1r	.	.	1r	.	.	1r	.	.	1r	.	.	1ryy	1ryy
.	.	.	.	.	16gg\	.	.	.	.	.	.	.	.	.	.	.	.	.	.	.
.	.	.	.	.	16gg\	.	.	.	.	.	.	.	.	.	.	.	.	.	.	.
.	.	.	.	.	16gg\JJ	.	.	.	.	.	.	.	.	.	.	.	.	.	.	.
4F\	4 2	.	.	.	16bb\LL	.	.	.	.	.	.	.	.	.	.	.	.	.	.	.
.	.	.	.	.	16gg\	.	.	.	.	.	.	.	.	.	.	.	.	.	.	.
.	.	.	.	.	16gg\	.	.	.	.	.	.	.	.	.	.	.	.	.	.	.
.	.	.	.	.	16gg\JJ	.	.	.	.	.	.	.	.	.	.	.	.	.	.	.
4E\	6	.	.	.	16ccc\LL	.	.	.	.	.	.	.	.	.	.	.	.	.	.	.
.	.	.	.	.	16gg\	.	.	.	.	.	.	.	.	.	.	.	.	.	.	.
.	.	.	.	.	16gg\	.	.	.	.	.	.	.	.	.	.	.	.	.	.	.
.	.	.	.	.	16gg\JJ	.	.	.	.	.	.	.	.	.	.	.	.	.	.	.
4BB/	6 5	.	.	.	16ddd\LL	.	.	.	.	.	.	.	.	.	.	.	.	.	.	.
.	.	.	.	.	16gg\	.	.	.	.	.	.	.	.	.	.	.	.	.	.	.
.	.	.	.	.	16gg\	.	.	.	.	.	.	.	.	.	.	.	.	.	.	.
.	.	.	.	.	16gg\JJ	.	.	.	.	.	.	.	.	.	.	.	.	.	.	.
!	!	!	!	!	!LO:LB:g=original	!	!	!	!	!	!	!	!	!	!	!	!	!	!	!
=55	=55	=55	=55	=55	=55	=55	=55	=55	=55	=55	=55	=55	=55	=55	=55	=55	=55	=55	=55	=55
!LO:TX:t=P:problem=mixed beam:mod=	!	!	!	!	!	!	!	!	!	!	!	!	!	!	!	!	!	!	!	!
8C/L	.	.	1r	.	16eee\LL	.	1r	.	.	1r	.	.	1r	.	.	1r	.	.	1ryy	1ryy
.	.	.	.	.	16ggg\	.	.	.	.	.	.	.	.	.	.	.	.	.	.	.
8B\	.	.	.	.	16ddd\	.	.	.	.	.	.	.	.	.	.	.	.	.	.	.
.	.	.	.	.	16fff\JJ	.	.	.	.	.	.	.	.	.	.	.	.	.	.	.
8c\	.	.	.	.	16eee\LL	.	.	.	.	.	.	.	.	.	.	.	.	.	.	.
.	.	.	.	.	16ggg\	.	.	.	.	.	.	.	.	.	.	.	.	.	.	.
8G#X\J	.	.	.	.	16bb\	.	.	.	.	.	.	.	.	.	.	.	.	.	.	.
.	.	.	.	.	16ddd\JJ	.	.	.	.	.	.	.	.	.	.	.	.	.	.	.
8A\L	.	.	.	.	16ccc\LL	.	.	.	.	.	.	.	.	.	.	.	.	.	.	.
.	.	.	.	.	16eee\	.	.	.	.	.	.	.	.	.	.	.	.	.	.	.
8G#\	.	.	.	.	16bb\	.	.	.	.	.	.	.	.	.	.	.	.	.	.	.
.	.	.	.	.	16ddd\JJ	.	.	.	.	.	.	.	.	.	.	.	.	.	.	.
8A\	.	.	.	.	16ccc\LL	.	.	.	.	.	.	.	.	.	.	.	.	.	.	.
.	.	.	.	.	16eee\	.	.	.	.	.	.	.	.	.	.	.	.	.	.	.
8E\J	.	.	.	.	16gg#X\	.	.	.	.	.	.	.	.	.	.	.	.	.	.	.
.	.	.	.	.	16bb\JJ	.	.	.	.	.	.	.	.	.	.	.	.	.	.	.
=56	=56	=56	=56	=56	=56	=56	=56	=56	=56	=56	=56	=56	=56	=56	=56	=56	=56	=56	=56	=56
8F\L	.	.	1r	.	16aa\LL	.	1r	.	.	1r	.	.	1r	.	.	1r	.	.	1ryy	1ryy
.	.	.	.	.	16ccc\	.	.	.	.	.	.	.	.	.	.	.	.	.	.	.
8E\	.	.	.	.	16gg#X\	.	.	.	.	.	.	.	.	.	.	.	.	.	.	.
.	.	.	.	.	16bb\JJ	.	.	.	.	.	.	.	.	.	.	.	.	.	.	.
8F\	.	.	.	.	16aa\LL	.	.	.	.	.	.	.	.	.	.	.	.	.	.	.
.	.	.	.	.	16ccc\	.	.	.	.	.	.	.	.	.	.	.	.	.	.	.
8C\J	.	.	.	.	16ee\	.	.	.	.	.	.	.	.	.	.	.	.	.	.	.
.	.	.	.	.	16ggn\JJ	.	.	.	.	.	.	.	.	.	.	.	.	.	.	.
8D\	.	.	.	.	16ff\LL	.	.	.	.	.	.	.	.	.	.	.	.	.	.	.
.	.	.	.	.	16aa\	.	.	.	.	.	.	.	.	.	.	.	.	.	.	.
8r	.	.	.	.	16dd\	.	.	.	.	.	.	.	.	.	.	.	.	.	.	.
.	.	.	.	.	16ff\JJ	.	.	.	.	.	.	.	.	.	.	.	.	.	.	.
!	!	!	!	!	!LO:TX:t=P:problem=mixed beam:mod=	!	!	!	!	!	!	!	!	!	!	!	!	!	!	!
4r	.	.	.	.	16b\LL	.	.	.	.	.	.	.	.	.	.	.	.	.	.	.
.	.	.	.	.	16dd\	.	.	.	.	.	.	.	.	.	.	.	.	.	.	.
.	.	.	.	.	16f/	.	.	.	.	.	.	.	.	.	.	.	.	.	.	.
.	.	.	.	.	16a/JJ	.	.	.	.	.	.	.	.	.	.	.	.	.	.	.
=57	=57	=57	=57	=57	=57	=57	=57	=57	=57	=57	=57	=57	=57	=57	=57	=57	=57	=57	=57	=57
4r	.	.	1r	.	16d/LL	.	1r	.	.	1r	.	.	1r	.	.	1r	.	.	1ryy	1ryy
.	.	.	.	.	16f/	.	.	.	.	.	.	.	.	.	.	.	.	.	.	.
.	.	.	.	.	16B/	.	.	.	.	.	.	.	.	.	.	.	.	.	.	.
.	.	.	.	.	16d/JJ	.	.	.	.	.	.	.	.	.	.	.	.	.	.	.
8r	.	.	.	.	16G/LL	.	.	.	.	.	.	.	.	.	.	.	.	.	.	.
.	.	.	.	.	16B/	.	.	.	.	.	.	.	.	.	.	.	.	.	.	.
8GG/	.	.	.	.	16d/	.	.	.	.	.	.	.	.	.	.	.	.	.	.	.
.	.	.	.	.	16f/JJ	.	.	.	.	.	.	.	.	.	.	.	.	.	.	.
8C\L	.	.	.	.	16e/LL	.	.	.	.	.	.	.	.	.	.	.	.	.	.	.
.	.	.	.	.	16g/	.	.	.	.	.	.	.	.	.	.	.	.	.	.	.
8E\J	.	.	.	.	16cc/	.	.	.	.	.	.	.	.	.	.	.	.	.	.	.
.	.	.	.	.	16cc/JJ	.	.	.	.	.	.	.	.	.	.	.	.	.	.	.
8G\L	.	.	.	.	16b\LL	.	.	.	.	.	.	.	.	.	.	.	.	.	.	.
.	.	.	.	.	16dd\	.	.	.	.	.	.	.	.	.	.	.	.	.	.	.
8B\J	.	.	.	.	16ff\	.	.	.	.	.	.	.	.	.	.	.	.	.	.	.
.	.	.	.	.	16ff\JJ	.	.	.	.	.	.	.	.	.	.	.	.	.	.	.
!LO:LB:g=original	!	!	!	!	!LO:LB:g=original	!	!	!	!	!	!	!	!	!	!	!	!	!	!	!
=58	=58	=58	=58	=58	=58	=58	=58	=58	=58	=58	=58	=58	=58	=58	=58	=58	=58	=58	=58	=58
8c\L	.	.	1r	.	16ee\LL	.	1r	.	.	1r	.	.	1r	.	.	1r	.	.	1ryy	1ryy
.	.	.	.	.	16gg\	.	.	.	.	.	.	.	.	.	.	.	.	.	.	.
8E\J	.	.	.	.	16ccc\	.	.	.	.	.	.	.	.	.	.	.	.	.	.	.
.	.	.	.	.	16ccc\JJ	.	.	.	.	.	.	.	.	.	.	.	.	.	.	.
8D/L	.	.	.	.	16bb\LL	.	.	.	.	.	.	.	.	.	.	.	.	.	.	.
.	.	.	.	.	16gg\	.	.	.	.	.	.	.	.	.	.	.	.	.	.	.
8BB/J	.	.	.	.	16ff\	.	.	.	.	.	.	.	.	.	.	.	.	.	.	.
.	.	.	.	.	16ff\JJ	.	.	.	.	.	.	.	.	.	.	.	.	.	.	.
8C\L	.	.	.	.	16ee\LL	.	.	.	.	.	.	.	.	.	.	.	.	.	.	.
.	.	.	.	.	16gg\	.	.	.	.	.	.	.	.	.	.	.	.	.	.	.
8E\J	.	.	.	.	16ccc\	.	.	.	.	.	.	.	.	.	.	.	.	.	.	.
.	.	.	.	.	16ccc\JJ	.	.	.	.	.	.	.	.	.	.	.	.	.	.	.
8D/L	.	.	.	.	16bb\LL	.	.	.	.	.	.	.	.	.	.	.	.	.	.	.
.	.	.	.	.	16gg\	.	.	.	.	.	.	.	.	.	.	.	.	.	.	.
8BB/J	.	.	.	.	16ff\	.	.	.	.	.	.	.	.	.	.	.	.	.	.	.
.	.	.	.	.	16ff\JJ	.	.	.	.	.	.	.	.	.	.	.	.	.	.	.
=59	=59	=59	=59	=59	=59	=59	=59	=59	=59	=59	=59	=59	=59	=59	=59	=59	=59	=59	=59	=59
!LO:TX:t=P:problem=mixed beam:mod=	!	!	!	!	!	!	!	!	!	!	!	!	!	!	!	!	!	!	!	!
8C/L	.	.	1r	.	16ee\LL	.	1r	.	.	1r	.	.	1r	.	.	1r	.	.	1ryy	1ryy
.	.	.	.	.	16gg\	.	.	.	.	.	.	.	.	.	.	.	.	.	.	.
8F\J	.	.	.	.	16cc\	.	.	.	.	.	.	.	.	.	.	.	.	.	.	.
.	.	.	.	.	16dd\JJ	.	.	.	.	.	.	.	.	.	.	.	.	.	.	.
!LO:TX:t=P:problem=mixed beam:mod=	!	!	!	!	!LO:SIC:v:s=4ddT\	!	!	!	!	!	!	!	!	!	!	!	!	!	!	!
!	!	!	!	!	!LO:TX:a:t=t:mod=	!	!	!	!	!	!	!	!	!	!	!	!	!	!	!
8G\L	.	.	.	.	4dd\	.	.	.	.	.	.	.	.	.	.	.	.	.	.	.
8GG/J	.	.	.	.	.	.	.	.	.	.	.	.	.	.	.	.	.	.	.	.
!LO:TX:t=P:problem=mixed beam:mod=	!	!	!	!	!	!	!	!	!	!	!	!	!	!	!	!	!	!	!	!
8C/L	.	.	.	.	8cc\L	.	.	.	.	.	.	.	.	.	.	.	.	.	.	.
8c\J	.	.	.	.	8cccJ 8ee 8g 8c\	.	.	.	.	.	.	.	.	.	.	.	.	.	.	.
!	!	!	!	!	!	!LO:DY:t=for.:mod= 	!	!	!	!	!	!	!	!	!	!	!	!	!	!
4C/	.	.	.	.	4ccc 4ee 4g 4c\	f	.	.	.	.	.	.	.	.	.	.	.	.	.	.
!	!	!	!	!	!	!	!LO:LB:g=original	!	!	!	!	!	!	!	!	!	!	!	!	!
=60	=60	=60	=60	=60	=60	=60	=60	=60	=60	=60	=60	=60	=60	=60	=60	=60	=60	=60	=60	=60
!!LO:TX:a:t= :mod=Tutti
!	!	!	!	!LO:DY:t= :mod=%s	!	!	!	!	!	!	!	!	!	!	!	!	!	!	!	!
!	!	!	!	!LO:MO:mod=!LO&colon;DY&colon;ed=brack	!	!	!	!	!	!	!	!	!	!	!	!	!	!	!	!
!LO:TX:a:i:t=Tutti:mod=	!	!LO:DY:t=for :mod=%s	!	!null	!LO:TX:a:i:t=Tutti:mod=	!LO:DY:t= :mod=%s	!	!	!	!	!	!	!	!	!	!	!	!	!	!
2C/	.	f	8.cc\L	f	8.ee\L	f	8c\	A-	A-	8.c\L	Ag-	A-	8.g\	A-	A-	8.ee\L	Ag-	A-	1ryy	1ryy
.	.	.	.	.	.	.	8c\	-gnus	-gnus	.	.	.	.	.	.	.	.	.	.	.
.	.	.	16dd\Jk	.	16ff\K	.	.	.	.	16d\Jk	.	.	16g\	-gnus	-gnus	16ff\Jk	.	.	.	.
.	.	.	8ee\L	.	8gg\	.	4c\	de-	De-	8e\L	-nus	-gnus	4cc\	de-	De-	8gg\L	-nus	-gnus	.	.
.	.	.	8ff\J	.	8aa\J	.	.	.	.	8f\J	.	.	.	.	.	8aa\J	.	.	.	.
8r	.	.	8ee\L	.	8gg\L	.	8c\	-i	-i	8e\L	de-	De-	8g\	-i	-i	8gg\L	de-	De-	.	.
8GG/	.	.	8dd\J	.	8ff\	.	8G\	qui	qui	8d\J	.	.	8g\	qui	qui	8ff\J	.	.	.	.
4C/	.	.	4cc\	.	8ee\	.	8c\	tol-	tol-	8c\	-i	-i	8cc\	tol-	tol-	8ee\	-i	-i	.	.
.	.	.	.	.	8ee\J	.	8c\	-lis	-lis	8c\	qui	qui	8cc\	-lis	-lis	8ee\	qui	qui	.	.
!	!	!	!	!	!	!	!	!	!	!	!	!	!LO:LB:g=original	!	!	!	!	!	!	!
=61	=61	=61	=61	=61	=61	=61	=61	=61	=61	=61	=61	=61	=61	=61	=61	=61	=61	=61	=61	=61
4r	.	.	(8dd\L	.	(8ff\L	.	1r	.	.	8d\L	tol-	tol-	1r	.	.	8ff\L	tol-	tol-	1ryy	1ryy
.	.	.	8cc\)	.	8ee\)	.	.	.	.	8c\J	.	.	.	.	.	8ee\J	.	.	.	.
4C/	.	.	(8ff\	.	(8aa\	.	.	.	.	8f\L	.	.	.	.	.	8aa\L	.	.	.	.
.	.	.	8ee\J)	.	8gg\J)	.	.	.	.	8e\J	.	.	.	.	.	8gg\J	.	.	.	.
4r	.	.	(8aa\L	.	(8ccc\L	.	.	.	.	8a\L	.	.	.	.	.	8ccc\L	-lis	-lis	.	.
.	.	.	8gg\)	.	8bb\)	.	.	.	.	8g\J	.	.	.	.	.	8bb\J	.	.	.	.
4C/	.	.	(8ff\	.	(8aa\	.	.	.	.	8f\	-lis	-lis	.	.	.	8aa\L	pec-	pec-	.	.
.	.	.	8ee\J)	.	8gg\J)	.	.	.	.	8e\	pec-	pec-	.	.	.	8gg\J	.	.	.	.
!	!	!	!	!	!LO:PB:g=original	!	!	!	!	!	!	!	!	!	!	!	!	!	!	!
=62	=62	=62	=62	=62	=62	=62	=62	=62	=62	=62	=62	=62	=62	=62	=62	=62	=62	=62	=62	=62
8r	.	.	16ee\LL	.	16gg\LL	.	8r	.	.	16e\LL	-ca-	-ca-	8r	.	.	16gg\LL	-ca-	-ca-	1ryy	1ryy
.	.	.	16dd\JJ	.	16ff\JJ	.	.	.	.	16d\JJ	.	.	.	.	.	16ff\JJ	.	.	.	.
!LO:TX:t=P:problem=mixed beam:mod=	!	!	!	!	!	!	!	!	!	!	!	!	!	!	!	!	!	!	!	!
8G\L	.	.	4cc\	.	4ee\	.	8G\	pec-	pec-	4c\	.	.	8g\	pec-	pec-	4ee\	.	.	.	.
8G\	.	.	.	.	.	.	8G\	-ca-	-ca-	.	.	.	8g\	-ca-	-ca-	.	.	.	.	.
8GG/J	.	.	8b\	.	8dd\	.	8G\	-ta	-ta	8B\	-ta	-ta	8g\	-ta	-ta	8dd\	-ta	-ta	.	.
!	!	!	!	!	!	!	!	!	!	!	!	!	!	!	!	!LO:LB:g=original	!	!	!	!
8r	.	.	16dd\LL	.	16ff\LL	.	8c\	mun-	mun-	16d\LL	mun-	mun-	8cc\	mun-	mun-	16ff\LL	mun-	mun-	.	.
.	.	.	16cc\	.	16ee\	.	.	.	.	16c\JJ	.	.	.	.	.	16ee\JJ	.	.	.	.
8C/	.	.	16ff\	.	16aa\	.	8C/	-di	-di	16f\LL	.	.	8cc\	-di	-di	16aa\LL	.	.	.	.
.	.	.	16ee\JJ	.	16gg\JJ	.	.	.	.	16e\JJ	.	.	.	.	.	16gg\JJ	.	.	.	.
4C/	.	.	4ee\	.	4gg\	.	4r	.	.	4e\	-di	-di	4r	.	.	4gg\	-di	-di	.	.
!LO:LB:g=original	!	!	!LO:LB:g=original	!	!	!	!	!	!	!	!	!	!	!	!	!	!	!	!	!
=63	=63	=63	=63	=63	=63	=63	=63	=63	=63	=63	=63	=63	=63	=63	=63	=63	=63	=63	=63	=63
4GG/	.	.	8b\L	.	8dd\L	.	8G\	mi-	mi-	4G/	mi-	mi-	8b\	mi-	mi-	8dd\	par-	par-	1ryy	1ryy
.	.	.	8cc\J	.	8ee\J	.	8G\	-se-	-se-	.	.	.	8cc\	-se-	-se-	8ee\	-ce	-ce	.	.
.	.	.	8qqee/	.	8qqgg/	.	.	.	.	.	.	.	.	.	.	8qqgg/	.	.	.	.
4GG/	.	.	8dd\L	.	8ff\L	.	8G\	-re-	-re-	4G/	-se-	-se-	8dd\L	-re-	-re-	8ff\	no-	no-	.	.
.	.	.	16cc\L	.	16ee\L	.	8G\	-re	-re	.	.	.	16cc\L	-re	-re	16ee\LL	-bis	-bis	.	.
.	.	.	16b\JJ	.	16dd\JJ	.	.	.	.	.	.	.	16b\JJ	.	.	16dd\JJ	.	.	.	.
.	.	.	8qqf/	.	8qqdd/	.	.	.	.	.	.	.	8qqf	.	.	8qqdd/	.	.	.	.
8r	.	.	8e/L	.	8cc\L	.	4c\	no-	no-	4c\	-re-	-re-	8e\L	no-	no-	8cc\	do-	Do-	.	.
8C/L	.	.	16g/L	.	16ee\L	.	.	.	.	.	.	.	16g\L	.	.	16ee\LL	-mi-	-mi-	.	.
.	.	.	16f/JJ	.	16dd\JJ	.	.	.	.	.	.	.	16f\JJ	.	.	16dd\JJ	.	.	.	.
8C/J	.	.	4e/	.	4cc\	.	4c\	-bis	-bis	4c\	-re	-re	4e\	-bis	-bis	4cc\	-ne	-ne	.	.
8r	.	.	.	.	.	.	.	.	.	.	.	.	.	.	.	.	.	.	.	.
!	!	!	!	!	!	!	!	!	!	!LO:LB:g=original	!	!	!	!	!	!	!	!	!	!
=64	=64	=64	=64	=64	=64	=64	=64	=64	=64	=64	=64	=64	=64	=64	=64	=64	=64	=64	=64	=64
8r	.	.	8e/L	.	8cc\L	.	2r	.	.	1G	.	.	8e\	mi-	mi-	8cc\	mi-	mi-	1ryy	1ryy
8c\	.	.	8e/J	.	8cc\J	.	.	.	.	.	.	.	8e\	-se-	-se-	8cc\	-se-	-se-	.	.
!	!	!	!LO:TX:t=P:problem=mixed beam:mod=	!	!	!	!	!	!	!	!	!	!LO:SIC:v:s=8e\	!	!	!	!	!	!	!
8r	.	.	8e/L	.	8cc\L	.	.	.	.	.	.	.	8e\L	-re-	-re-	8cc\	-re-	-re-	.	.
!	!	!	!	!	!	!	!	!	!	!	!	!	!LO:SIC:v:s=16b\LL	!	!	!	!	!	!	!
8c\	.	.	16b\L	.	16dd\L	.	.	.	.	.	.	.	16b\L	-re	-re	16dd\LL	-re	-re	.	.
.	.	.	16cc\JJ	.	16ee\JJ	.	.	.	.	.	.	.	16cc\JJ	.	.	16ee\JJ	.	.	.	.
8r	.	.	16cc\LL	.	16ee\LL	.	8r	.	.	.	.	.	16cc\LL	no-	no-	16ee\LL	no-	no-	.	.
.	.	.	16b\	.	16dd\	.	.	.	.	.	.	.	16b\	.	.	16dd\	.	.	.	.
8G\	.	.	16a#X\	.	16cc#X\	.	8G\	no-	no-	.	.	.	16a#X\	.	.	16cc#X\	.	.	.	.
.	.	.	16b\JJ	.	16dd\JJ	.	.	.	.	.	.	.	16b\JJ	.	.	16dd\JJ	.	.	.	.
4G\	.	.	4b\	.	4dd\	.	4G\	-bis	-bis	.	.	.	4b\	-bis	-bis	4dd\	-bis	-bis	.	.
!	!	!	!	!	!	!	!LO:LB:g=original	!	!	!	!	!	!LO:LB:g=original	!	!	!	!	!	!	!
=65	=65	=65	=65	=65	=65	=65	=65	=65	=65	=65	=65	=65	=65	=65	=65	=65	=65	=65	=65	=65
8r	.	.	8b\L	.	8dd\L	.	2r	.	.	2G/	.	.	8b\	mi-	mi-	8dd\	mi-	mi-	1ryy	1ryy
8G\	.	.	8b\J	.	8dd\J	.	.	.	.	.	.	.	8b\	-se-	-se-	8dd\	-se-	-se-	.	.
!	!	!	!	!	!	!	!	!	!	!	!	!	!LO:SIC:v:s=8b\	!	!	!	!	!	!	!
8r	.	.	8b\L	.	8dd\L	.	.	.	.	.	.	.	8b\L	-re-	-re-	8dd\	-re-	-re-	.	.
!	!	!	!	!	!	!	!	!	!	!	!	!	!LO:SIC:v:s=16cc\LL	!	!	!	!	!	!	!
8G\	.	.	16cc\L	.	16ee\L	.	.	.	.	.	.	.	16cc\L	-re	-re	16ee\LL	-re	-re	.	.
.	.	.	16dd\JJ	.	16ff\JJ	.	.	.	.	.	.	.	16dd\JJ	.	.	16ff\JJ	.	.	.	.
8r	.	.	16dd\LL	.	16ff\LL	.	8r	.	.	4G/	.	.	16dd\LL	no-	no-	16ff\LL	no-	no-	.	.
.	.	.	16cc\	.	16ee\	.	.	.	.	.	.	.	16cc\	.	.	16ee\	.	.	.	.
8c\L	.	.	16b\	.	16dd#X\	.	8c\	no-	no-	.	.	.	16b\	.	.	16dd#X\	.	.	.	.
.	.	.	16cc\JJ	.	16ee\JJ	.	.	.	.	.	.	.	16cc\JJ	.	.	16ee\JJ	.	.	.	.
8c\	.	.	8cc\	.	8ee\L	.	8c\	-bis	-bis	4r	.	.	8cc\	-bis.	-bis	8ee\	-bis:	-bis	.	.
8E\J	.	.	8g/	.	8gg\J	.	8E\	o-	o-	.	.	.	8r	.	.	8r	.	.	.	.
!	!	!	!	!	!LO:LB:g=original	!	!	!	!	!	!	!	!	!	!	!LO:LB:g=original	!	!	!	!
=66	=66	=66	=66	=66	=66	=66	=66	=66	=66	=66	=66	=66	=66	=66	=66	=66	=66	=66	=66	=66
!	!	!	!	!	!	!	!	!	!	!	!	!	!	!	!	!LO:TX:a:i:t=1.:mod=	!	!	!	!
8F\	.	.	16a/LL	.	16aa\LL	.	8F\	-ra	-ra	1r	.	.	1r	.	.	1r	.	.	1ryy	1ryy
.	.	.	16g/	.	16gg\	.	.	.	.	.	.	.	.	.	.	.	.	.	.	.
8r	.	.	16f/	.	16ff\	.	8r	.	.	.	.	.	.	.	.	.	.	.	.	.
.	.	.	16e/JJ	.	16ee\JJ	.	.	.	.	.	.	.	.	.	.	.	.	.	.	.
4r	.	.	16f/LL	.	16ff\LL	.	4r	.	.	.	.	.	.	.	.	.	.	.	.	.
.	.	.	16g/	.	16gg\	.	.	.	.	.	.	.	.	.	.	.	.	.	.	.
.	.	.	16a/	.	16aa\	.	.	.	.	.	.	.	.	.	.	.	.	.	.	.
.	.	.	16b/JJ	.	16bb\JJ	.	.	.	.	.	.	.	.	.	.	.	.	.	.	.
8r	.	.	16cc/LL	.	16ccc\LL	.	2r	.	.	.	.	.	.	.	.	.	.	.	.	.
.	.	.	16b/	.	16bb\	.	.	.	.	.	.	.	.	.	.	.	.	.	.	.
8F\L	.	.	16cc/	.	16ccc\	.	.	.	.	.	.	.	.	.	.	.	.	.	.	.
.	.	.	16a/JJ	.	16aa\JJ	.	.	.	.	.	.	.	.	.	.	.	.	.	.	.
8E\	.	.	8g/L	.	8gg\L	.	.	.	.	.	.	.	.	.	.	.	.	.	.	.
8BB\J	.	.	8f/J	.	8ff\J	.	.	.	.	.	.	.	.	.	.	.	.	.	.	.
!	!	!	!LO:LB:g=original	!	!	!	!	!	!	!	!	!	!	!	!	!	!	!	!	!
=67	=67	=67	=67	=67	=67	=67	=67	=67	=67	=67	=67	=67	=67	=67	=67	=67	=67	=67	=67	=67
.	.	.	8qqf/	.	8qqff/	.	.	.	.	.	.	.	.	.	.	.	.	.	.	.
8C/	.	.	8e/L	.	8ee\L	.	4r	.	.	2r	.	.	2r	.	.	4r	.	.	1ryy	1ryy
8r	.	.	16d/L	.	16dd\L	.	.	.	.	.	.	.	.	.	.	.	.	.	.	.
.	.	.	16c/JJ	.	16cc\JJ	.	.	.	.	.	.	.	.	.	.	.	.	.	.	.
!	!	!	!	!	!LO:MO:mod=8qqgg/	!	!	!	!	!	!	!	!	!	!	!	!	!	!	!
.	.	.	8qqee/	.	8qqryy	.	.	.	.	.	.	.	.	.	.	.	.	.	.	.
8B\L	.	.	8dd\L	.	8ff\L	.	8r	.	.	.	.	.	.	.	.	8r	.	.	.	.
8c\J	.	.	8cc\J	.	8ee\J	.	8c\	pro	pro	.	.	.	.	.	.	8ee	no-	[pro]	.	.
!	!	!	!LO:SIC:v:s=4ccT\	!	!LO:SIC:v:s=4eet\	!	!	!	!	!	!	!	!	!	!	!	!	!	!	!
!	!	!	!LO:TX:a:t=t:mod=	!	!LO:TX:a:t=t:mod=	!	!	!	!	!LO:TX:a:t=t	!	!	!	!	!	!	!	!	!	!
4G\	6 4	.	4cc\	.	4ee\	.	4G\	no-	no-	4c\	no-	no-	4g\	no-	no-	4ee\	.	no-	.	.
!	!	!	!	!	!	!	!	!	!	!	!	!	!	!	!	!LO:TX:a:t=t	!	!	!	!
4GG/	5 3	.	4b\	.	4dd\	.	4GG/	-bis	-bis	4B\	-bis	-bis	4g\	-bis	-bis	4dd\	-bis	-bis	.	.
=68	=68	=68	=68	=68	=68	=68	=68	=68	=68	=68	=68	=68	=68	=68	=68	=68	=68	=68	=68	=68
*	*	*	*^	*	*	*	*	*	*	*	*	*	*	*	*	*	*	*	*	*
*tremolo	*	*	*tremolo	*tremolo	*	*	*	*	*	*	*	*	*	*	*	*	*	*	*	*	*
!LO:TX:b:i:t=V&colon;S&colon;:mod=	!	!	!	!	!	!	!	!	!	!	!	!	!	!	!	!	!	!	!	!	!
8c\L	.	.	16ee/LL	16cc\LL	.	8ee\L	.	4c\	mi-	mi-	4c\	mi-	mi-	4g\	ex-	ex-	4ee\	mi-	mi-	1ryy	1ryy
.	.	.	16ee/	16cc\	.	.	.	.	.	.	.	.	.	.	.	.	.	.	.	.	.
8c\	.	.	16ee/	16cc\	.	8ee\J	.	.	.	.	.	.	.	.	.	.	.	.	.	.	.
.	.	.	16ee/	16cc\	.	.	.	.	.	.	.	.	.	.	.	.	.	.	.	.	.
8c\	.	.	16ee/	16cc\	.	8.ccc\L	.	4c\	-se-	-se-	4c\	-se-	-se-	4g\	-au-	-au-	4ee\	-se-	-se-	.	.
.	.	.	16ee/	16cc\	.	.	.	.	.	.	.	.	.	.	.	.	.	.	.	.	.
8c\J	.	.	16ee/	16cc\	.	.	.	.	.	.	.	.	.	.	.	.	.	.	.	.	.
.	.	.	16ee/JJ	16cc\JJ	.	16ee\Jk	.	.	.	.	.	.	.	.	.	.	.	.	.	.	.
!LO:PB:g=original	!	!	!	!	!	!	!	!	!	!	!	!	!	!	!	!	!	!	!	!	!
8B\L	6 5	.	16ff/LL	16dd\LL	.	8ff\L	.	4B\	-re-	-re-	4d\	-re-	-re-	4g\	-di	-di	4ff\	-re-	-re-	.	.
.	.	.	16ff/	16dd\	.	.	.	.	.	.	.	.	.	.	.	.	.	.	.	.	.
8B\	.	.	16ff/	16dd\	.	8ddd\	.	.	.	.	.	.	.	.	.	.	.	.	.	.	.
.	.	.	16ff/	16dd\	.	.	.	.	.	.	.	.	.	.	.	.	.	.	.	.	.
8B\	.	.	16ff/	16dd\	.	8bb\	.	4B\	-re	-re	4d\	-re	-re	4g\	nos	nos	4ff\	-re	-re	.	.
.	.	.	16ff/	16dd\	.	.	.	.	.	.	.	.	.	.	.	.	.	.	.	.	.
8B\J	.	.	16ff/	16dd\	.	8ff\J	.	.	.	.	.	.	.	.	.	.	.	.	.	.	.
.	.	.	16ff/JJ	16dd\JJ	.	.	.	.	.	.	.	.	.	.	.	.	.	.	.	.	.
=69	=69	=69	=69	=69	=69	=69	=69	=69	=69	=69	=69	=69	=69	=69	=69	=69	=69	=69	=69	=69	=69
!	!	!	!	!	!	!	!	!	!	!	!LO:MO:mod=*null:null	!	!	!	!	!	!	!	!	!	!
*	*	*	*	*	*	*	*	*	*	*	*2\right	*	*	*	*	*	*	*	*	*	*
8c\L	.	.	16ee/LL	16cc\LL	.	16ee\LL	.	2c\	no-	no-	2c\	no	no	4.g\	do-	Do-	2ee\	no-	no-	1ryy	1ryy
.	.	.	16ee/	16cc\	.	16ee\J	.	.	.	.	.	.	.	.	.	.	.	.	.	.	.
8c\	.	.	16ee/	16cc\	.	8eem\J	.	.	.	.	.	.	.	.	.	.	.	.	.	.	.
.	.	.	16ee/	16cc\	.	.	.	.	.	.	.	.	.	.	.	.	.	.	.	.	.
8c\	.	.	16ee/	16cc\	.	8ccc\L	.	.	.	.	.	.	.	.	.	.	.	.	.	.	.
.	.	.	16ee/	16cc\	.	.	.	.	.	.	.	.	.	.	.	.	.	.	.	.	.
8c\J	.	.	16ee/	16cc\	.	8ee\J	.	.	.	.	.	.	.	8g\	-mi-	-mi-	.	.	.	.	.
.	.	.	16ee/JJ	16cc\JJ	.	.	.	.	.	.	.	.	.	.	.	.	.	.	.	.	.
8B\L	.	.	16ff/LL	16dd\LL	.	16ff\LL	.	2B\	-bis	-bis	2d\	.	.	2g\	-ne	-ne	2ff\	-bis	-bis	.	.
.	.	.	16ff/	16dd\	.	16dd\	.	.	.	.	.	.	.	.	.	.	.	.	.	.	.
8B\	.	.	16ff/	16dd\	.	16bb\	.	.	.	.	.	.	.	.	.	.	.	.	.	.	.
.	.	.	16ff/	16dd\	.	16ff\JJ	.	.	.	.	.	.	.	.	.	.	.	.	.	.	.
8B\	.	.	16ff/	16dd\	.	16ddd\LL	.	.	.	.	.	.	.	.	.	.	.	.	.	.	.
.	.	.	16ff/	16dd\	.	16bb\	.	.	.	.	.	.	.	.	.	.	.	.	.	.	.
8B\J	.	.	16ff/	16dd\	.	16ff\	.	.	.	.	.	.	.	.	.	.	.	.	.	.	.
.	.	.	16ff/JJ	16dd\JJ	.	16dd\JJ	.	.	.	.	.	.	.	.	.	.	.	.	.	.	.
!	!	!	!	!	!	!LO:LB:g=original	!	!	!	!	!	!	!	!	!	!	!	!	!	!	!
=70	=70	=70	=70	=70	=70	=70	=70	=70	=70	=70	=70	=70	=70	=70	=70	=70	=70	=70	=70	=70	=70
8c\L	.	.	16ee/LL	16cc\LL	.	16ee\LL	.	4c\	mi-	mi-	1c	.	.	4g\	mi-	mi-	4ee\	mi-	mi-	1ryy	1ryy
.	.	.	16ee/	16cc\	.	16ccc 16ee\	.	.	.	.	.	.	.	.	.	.	.	.	.	.	.
8c\	.	.	16ee/	16cc\	.	16ccc 16ee\	.	.	.	.	.	.	.	.	.	.	.	.	.	.	.
.	.	.	16ee/	16cc\	.	16cccJJ 16ee\	.	.	.	.	.	.	.	.	.	.	.	.	.	.	.
*	*	*	*	*	*	*tremolo	*	*	*	*	*	*	*	*	*	*	*	*	*	*	*
8c\	.	.	16ee/	16cc\	.	16ccc 16ee\LL	.	4c\	-se-	-se-	.	.	.	4g\	-se-	-se-	4ee\	-se-	-se-	.	.
.	.	.	16ee/	16cc\	.	16ccc 16ee\	.	.	.	.	.	.	.	.	.	.	.	.	.	.	.
8c\J	.	.	16ee/	16cc\	.	16ccc 16ee\	.	.	.	.	.	.	.	.	.	.	.	.	.	.	.
.	.	.	16ee/JJ	16cc\JJ	.	16ccc 16ee\JJ	.	.	.	.	.	.	.	.	.	.	.	.	.	.	.
*Xtremolo	*	*	*	*	*	*	*	*	*	*	*	*	*	*	*	*	*	*	*	*	*
8A\L	.	.	16ee/LL	16cc\LL	.	16ccc 16ee\LL	.	4A\	-re-	-re-	.	.	.	4a\	-re-	-re-	4ee\	-re-	-re-	.	.
.	.	.	16ee/	16cc\	.	16ccc 16ee\	.	.	.	.	.	.	.	.	.	.	.	.	.	.	.
8A\	.	.	16ee/	16cc\	.	16ccc 16ee\	.	.	.	.	.	.	.	.	.	.	.	.	.	.	.
.	.	.	16ee/	16cc\	.	16ccc 16ee\JJ	.	.	.	.	.	.	.	.	.	.	.	.	.	.	.
8E\	6	.	16ee/	16cc\	.	16ccc 16ee\LL	.	4E\	-re	-re	.	.	.	4e\	-re	-re	4gg\	-re	-re	.	.
.	.	.	16ee/	16cc\	.	16ccc 16ee\	.	.	.	.	.	.	.	.	.	.	.	.	.	.	.
8E\J	.	.	16ee/	16cc\	.	16ccc 16ee\	.	.	.	.	.	.	.	.	.	.	.	.	.	.	.
.	.	.	16ee/JJ	16cc\JJ	.	16ccc 16ee\JJ	.	.	.	.	.	.	.	.	.	.	.	.	.	.	.
!	!	!	!	!	!	!	!	!LO:LB:g=original	!	!	!LO:LB:g=original	!	!	!LO:LB:g=original	!	!	!	!	!	!	!
=71	=71	=71	=71	=71	=71	=71	=71	=71	=71	=71	=71	=71	=71	=71	=71	=71	=71	=71	=71	=71	=71
*tremolo	*	*	*	*tremolo	*	*	*	*	*	*	*	*	*	*	*	*	*	*	*	*	*
!	!	!	!	!	!	!	!	!	!	!	!	!	!	!LO:LB:g=original	!	!	!	!	!	!	!
8F\L	.	.	16ff/LL	16dd\LL	.	16ddd 16ff\LL	.	2F\	no-	no-	2A/	no-	no-	4d\	no-	no-	2ff\	no-	no-	1ryy	1ryy
.	.	.	16ff/	16dd\	.	16ddd 16ff\	.	.	.	.	.	.	.	.	.	.	.	.	.	.	.
8F\	.	.	16ff/	16dd\	.	16ddd 16ff\	.	.	.	.	.	.	.	.	.	.	.	.	.	.	.
.	.	.	16ff/	16dd\	.	16ddd 16ff\JJ	.	.	.	.	.	.	.	.	.	.	.	.	.	.	.
8F\	.	.	16ff/	16dd\	.	16ddd 16ff\LL	.	.	.	.	.	.	.	4dd\	.	.	.	.	.	.	.
.	.	.	16ff/	16dd\	.	16ddd 16ff\	.	.	.	.	.	.	.	.	.	.	.	.	.	.	.
8F\J	.	.	16ff/	16dd\	.	16ddd 16ff\	.	.	.	.	.	.	.	.	.	.	.	.	.	.	.
.	.	.	16ff/JJ	16dd\JJ	.	16ddd 16ff\JJ	.	.	.	.	.	.	.	.	.	.	.	.	.	.	.
*Xtremolo	*	*	*	*	*	*	*	*	*	*	*	*	*	*	*	*	*	*	*	*	*
!LO:TX:t=P:problem=mixed beam:mod=	!	!	!	!	!	!	!	!	!	!	!	!	!	!	!	!	!	!	!	!	!
8G\L	.	.	16ee/LL	16g\LL	.	16ccc 16ee\LL	.	4G\	.	.	2G/	.	.	4cc\	.	.	4ee\	.	.	.	.
.	.	.	16ee/	16g\	.	16ccc 16ee\	.	.	.	.	.	.	.	.	.	.	.	.	.	.	.
8G\	.	.	16ee/	16g\	.	16ccc 16ee\	.	.	.	.	.	.	.	.	.	.	.	.	.	.	.
.	.	.	16ee/JJ	16g\JJ	.	16ccc 16ee\JJ	.	.	.	.	.	.	.	.	.	.	.	.	.	.	.
8GG/	.	.	16dd/LL	16g\LL	.	16bb 16dd\LL	.	4GG/	.	.	.	.	.	4b\	.	.	4dd\	.	.	.	.
.	.	.	16dd/	16g\	.	16bb 16dd\	.	.	.	.	.	.	.	.	.	.	.	.	.	.	.
8GG/J	.	.	16dd/	16g\	.	16bb 16dd\	.	.	.	.	.	.	.	.	.	.	.	.	.	.	.
.	.	.	16dd/JJ	16g\JJ	.	16bb 16dd\JJ	.	.	.	.	.	.	.	.	.	.	.	.	.	.	.
*	*	*	*Xtremolo	*Xtremolo	*	*Xtremolo	*	*	*	*	*	*	*	*	*	*	*	*	*	*	*
!	!	!	!LO:LB:g=original	!	!	!	!	!	!	!	!	!	!	!	!	!	!	!	!	!	!
=72	=72	=72	=72	=72	=72	=72	=72	=72	=72	=72	=72	=72	=72	=72	=72	=72	=72	=72	=72	=72	=72
8C/	.	.	8ee/	8g\	.	8ccc 8ee\	.	8C/	-bis	-bis	8G/	-bis	-bis	8cc\	-bis	-bis	8ee\	-bis	-bis	1ryy	1ryy
8r	.	.	8r	8ryy	.	8r	.	8r	.	.	8r	.	.	8r	.	.	8r	.	.	.	.
4r	.	.	4r	4ryy	.	4r	.	4r	.	.	4r	.	.	4r	.	.	4r	.	.	.	.
8r	.	.	8r	2ryy	.	8r	.	8r	.	.	8r	.	.	8r	.	.	8r	.	.	.	.
!	!	!	!	!	!	!	!	!	!	!	!	!	!LO:MO:mod=*null:null	!	!	!LO:MO:mod=*null:null	!	!	!	!	!
*	*	*	*	*	*	*	*	*	*	*	*	*ij	*ij	*	*ij	*ij	*	*	*	*	*
!LO:TX:t=P:problem=mixed beam:mod=	!	!	!	!	!	!	!	!	!	!	!	!	!	!	!	!	!	!	!	!	!
8E\L	.	.	8ee\L	.	.	8gg\L	.	8E\	pro	pro	8c\	no-	[pro]	8cc\	no-	[pro]	8gg\	no-	[pro]	.	.
!	!	!	!	!	!	!	!	!	!	!	!	!	!LO:MO:mod=*ij	!	!	!LO:MO:mod=*ij	!	!	!	!	!
*	*	*	*	*	*	*	*	*	*	*	*	*	*null	*	*	*null	*	*	*	*	*
8D\	.	.	8ff\	.	.	8aa\	.	8D/L	no-	no-	4d\	.	no-	8a\L	.	no-	4ff\	.	no-	.	.
8GG/J	.	.	8dd\J	.	.	8bb\J	.	8GG/J	.	.	.	.	.	8b\J	.	.	.	.	.	.	.
*	*	*	*v	*v	*	*	*	*	*	*	*	*	*	*	*	*	*	*	*	*	*
=73	=73	=73	=73	=73	=73	=73	=73	=73	=73	=73	=73	=73	=73	=73	=73	=73	=73	=73	=73	=73
8C/	.	.	8ee\	.	8ccc\	.	8C/	-bis	-bis	8G/	-bis	-bis	8cc\	-bis	-bis	8ee\	-bis	-bis	1ryy	1ryy
*	*	*	*	*	*	*	*	*	*	*	*Xij	*Xij	*	*Xij	*Xij	*	*	*	*	*
8r	.	.	8r	.	8r	.	8r	.	.	8r	.	.	8r	.	.	8r	.	.	.	.
4r	.	.	4r	.	4r	.	4r	.	.	4r	.	.	4r	.	.	4r	.	.	.	.
8r	.	.	8r	.	8r	.	8r	.	.	8r	.	.	8r	.	.	8r	.	.	.	.
8C/	.	.	8ee\L	.	8gg\L	.	8C/	pro	pro	8G/	no-	[pro]	8cc\	no-	[pro]	8ee\	no-	[pro]	.	.
4GG/	.	.	8dd\	.	8ff\	.	4GG/	no-	no-	4B\	.	no-	4g\	.	no-	4dd\	.	no-	.	.
.	.	.	8b\J	.	8dd\J	.	.	.	.	.	.	.	.	.	.	.	.	.	.	.
=74	=74	=74	=74	=74	=74	=74	=74	=74	=74	=74	=74	=74	=74	=74	=74	=74	=74	=74	=74	=74
*tremolo	*	*	*	*	*	*	*	*	*	*	*	*	*	*	*	*	*	*	*	*
!	!	!	!LO:TX:t=P:problem=mixed beam:mod=	!	!	!	!	!	!	!	!	!	!	!	!	!LO:TX:a:i:t=e:mod=	!	!	!	!
8C/L	.	.	8cc/L	.	8ee\L	.	4C/	-bis.	-bis.	4c\	-bis	-bis.	4g\	-bis.	-bis.	4ee\	-bis.	-bis.	1ryy	1ryy
8C/	.	.	8cc 8e 8G/	.	8ccc 8ee\	.	.	.	.	.	.	.	.	.	.	.	.	.	.	.
8C/	.	.	8cc 8e 8G/	.	8ccc 8ee\	.	4r	.	.	4r	.	.	4r	.	.	4r	.	.	.	.
8C/J	.	.	8ccJ 8e 8G/	.	8cccJ 8ee\	.	.	.	.	.	.	.	.	.	.	.	.	.	.	.
*Xtremolo	*	*	*	*	*	*	*	*	*	*	*	*	*	*	*	*	*	*	*	*
!	!	!	!	!	!	!	!LO:TX:b:i:t=V.. Salve.:mod=	!	!	!LO:TX:b:i:t=Salve Segitur.:mod=	!	!	!LO:TX:b:i:t=Salve S(e)quitur:mod=	!	!	!LO:TX:b:i:t=Salve Seq&colon;:mod=	!	!	!	!
4C/	.	.	4cc 4e 4G/	.	4ccc 4ee\	.	2r	.	.	2r	.	.	2r	.	.	2r	.	.	.	.
!	!	!	!LO:TX:b:i:t=V.. Salve.:mod=	!	!	!	!	!	!	!	!	!	!	!	!	!	!	!	!	!
4r	.	.	4r	.	4r	.	.	.	.	.	.	.	.	.	.	.	.	.	.	.
==	==	==	==	==	==	==	==	==	==	==	==	==	==	==	==	==	==	==	==	==
*-	*-	*-	*-	*-	*-	*-	*-	*-	*-	*-	*-	*-	*-	*-	*-	*-	*-	*-	*-	*-
!!!system-decoration: [(g1)][(g2)][(g3)]<s9>
!!!RDF**kern: > = above
!!!RDF**kern: < = below
!!!RDF**kern: | = vertical stroke
!!!filter-modern: shed -k -e "s/:TUP:/:tup:/L" | sic -sq | modori -m | tie -s | autostem -r | humtr -p | shed -k -e "s/([\(\)\[\]])[><]/$1/g"
!!!ENC: Marcin Jachim
!!!END: 2020-08-18
!!!ENC: Kamil Watkowski
!!!END: 2021-11-27
!!!ENC-modern: Andrzej Kubiczek
!!!END-modern: 2022-06-10
!!!YEC: Copyright 2022 Narodowy Instytut Fryderyka Chopina (https://polishscores.org)
!!!YEM: License CC-BY-4.0 (https://creativecommons.org/licenses/by/4.0)
